(.../PCB/ulp/pcb-gcode/pcb-gcode.ulp)
(Copyright 2005 - 2012 by John Johnson)
(See readme.txt for licensing terms.)
(This file generated from the board:)
(.../PCB/Eagle Projects/NSP2/NSP2C.brd)
(Current profile is .../Design/PCB/ulp/profiles/generic.pp  )
(This file generated 10/27/17 7:24 PM)
(Settings from pcb-machine.h)
(spindle on time = 5.0000)
(spindle speed = 20000.0000)
(tool change at 0.0000 0.0000 25.4000 )
(feed rate xy = F0.00  )
(feed rate z  = F300.00 )
(Z Axis Settings)
(  High     Up        Down     Drill)
(12.0000 	3.0000 	-0.1778 	-2.0000 )
(Settings from pcb-defaults.h)
(isolate min = 0.0000)
(isolate max = 0.5080)
(isolate step = 0.2500)
(Generated bottom outlines, bottom drill, )
(Unit of measure: mm)
( Tool|       Size       |  Min Sub |  Max Sub |   Count )
( T01  0.762mm 0.0300in 0.0000in 0.0000in )
( T02  0.813mm 0.0320in 0.0000in 0.0000in )
( T03  1.016mm 0.0400in 0.0000in 0.0000in )
( T04  1.118mm 0.0440in 0.0000in 0.0000in )
( T05  3.170mm 0.1248in 0.0000in 0.0000in )
( T06  3.302mm 0.1300in 0.0000in 0.0000in )
(Metric Mode)
G21
(Absolute Coordinates)
G90
S20000
G00 Z12.0000 
G00 X0.0000 Y0.0000 
M03
G04 P5.000000
M05
G00 Z25.4000 
G00 Z3.0000 
M03
G04 P5.000000
G00 X40.1930 Y27.6600 
G01 Z-2.0000 F300.00 
G00 Z3.0000 
G00 X40.1930 Y32.6600 
G01 Z-2.0000 F300.00 
G00 Z3.0000 
G00 X62.4180 Y33.9300 
G01 Z-2.0000 F300.00 
G00 Z3.0000 
G00 X62.4180 Y28.9300 
G01 Z-2.0000 F300.00 
G00 Z3.0000 
G00 X60.6800 Y70.8000 
G01 Z-2.0000 F300.00 
G00 Z3.0000 
G00 X65.6800 Y70.8000 
G01 Z-2.0000 F300.00 
G00 Z3.0000 
G00 X65.6800 Y75.8800 
G01 Z-2.0000 F300.00 
G00 Z3.0000 
G00 X60.6800 Y75.8800 
G01 Z-2.0000 F300.00 
G00 Z3.0000 
M05
G00 Z25.4000 
G00 X0.0000 Y0.0000 
G00 Z3.0000 
M03
G04 P5.000000
G00 X46.6700 Y27.8740 
G01 Z-2.0000 F300.00 
G00 Z3.0000 
G00 X48.5750 Y26.6040 
G01 Z-2.0000 F300.00 
G00 Z3.0000 
G00 X48.5750 Y29.1440 
G01 Z-2.0000 F300.00 
G00 Z3.0000 
M05
G00 Z25.4000 
G00 X0.0000 Y0.0000 
G00 Z3.0000 
M03
G04 P5.000000
G00 X30.2870 Y93.5330 
G01 Z-2.0000 F300.00 
G00 Z3.0000 
G00 X30.2870 Y96.0730 
G01 Z-2.0000 F300.00 
G00 Z3.0000 
G00 X39.0500 Y97.4700 
G01 Z-2.0000 F300.00 
G00 Z3.0000 
G00 X39.0500 Y86.0400 
G01 Z-2.0000 F300.00 
G00 Z3.0000 
G00 X39.0500 Y83.5000 
G01 Z-2.0000 F300.00 
G00 Z3.0000 
G00 X39.0500 Y80.9600 
G01 Z-2.0000 F300.00 
G00 Z3.0000 
G00 X39.0500 Y78.4200 
G01 Z-2.0000 F300.00 
G00 Z3.0000 
G00 X39.0500 Y75.8800 
G01 Z-2.0000 F300.00 
G00 Z3.0000 
G00 X39.0500 Y73.3400 
G01 Z-2.0000 F300.00 
G00 Z3.0000 
G00 X39.0500 Y70.8000 
G01 Z-2.0000 F300.00 
G00 Z3.0000 
G00 X39.0500 Y68.2600 
G01 Z-2.0000 F300.00 
G00 Z3.0000 
G00 X39.0500 Y65.7200 
G01 Z-2.0000 F300.00 
G00 Z3.0000 
G00 X39.0500 Y63.1800 
G01 Z-2.0000 F300.00 
G00 Z3.0000 
G00 X39.0500 Y60.6400 
G01 Z-2.0000 F300.00 
G00 Z3.0000 
G00 X39.0500 Y58.1000 
G01 Z-2.0000 F300.00 
G00 Z3.0000 
G00 X39.0500 Y55.5600 
G01 Z-2.0000 F300.00 
G00 Z3.0000 
G00 X39.0500 Y53.0200 
G01 Z-2.0000 F300.00 
G00 Z3.0000 
G00 X39.0500 Y50.4800 
G01 Z-2.0000 F300.00 
G00 Z3.0000 
G00 X39.0500 Y47.9400 
G01 Z-2.0000 F300.00 
G00 Z3.0000 
G00 X39.0500 Y45.4000 
G01 Z-2.0000 F300.00 
G00 Z3.0000 
G00 X39.0500 Y42.8600 
G01 Z-2.0000 F300.00 
G00 Z3.0000 
G00 X56.8300 Y42.8600 
G01 Z-2.0000 F300.00 
G00 Z3.0000 
G00 X56.8300 Y45.4000 
G01 Z-2.0000 F300.00 
G00 Z3.0000 
G00 X56.8300 Y47.9400 
G01 Z-2.0000 F300.00 
G00 Z3.0000 
G00 X56.8300 Y50.4800 
G01 Z-2.0000 F300.00 
G00 Z3.0000 
G00 X56.8300 Y53.0200 
G01 Z-2.0000 F300.00 
G00 Z3.0000 
G00 X56.8300 Y55.5600 
G01 Z-2.0000 F300.00 
G00 Z3.0000 
G00 X56.8300 Y58.1000 
G01 Z-2.0000 F300.00 
G00 Z3.0000 
G00 X56.8300 Y60.6400 
G01 Z-2.0000 F300.00 
G00 Z3.0000 
G00 X56.8300 Y63.1800 
G01 Z-2.0000 F300.00 
G00 Z3.0000 
G00 X56.8300 Y65.7200 
G01 Z-2.0000 F300.00 
G00 Z3.0000 
G00 X56.8300 Y68.2600 
G01 Z-2.0000 F300.00 
G00 Z3.0000 
G00 X56.8300 Y70.8000 
G01 Z-2.0000 F300.00 
G00 Z3.0000 
G00 X56.8300 Y73.3400 
G01 Z-2.0000 F300.00 
G00 Z3.0000 
G00 X56.8300 Y75.8800 
G01 Z-2.0000 F300.00 
G00 Z3.0000 
G00 X56.8300 Y78.4200 
G01 Z-2.0000 F300.00 
G00 Z3.0000 
G00 X56.8300 Y80.9600 
G01 Z-2.0000 F300.00 
G00 Z3.0000 
G00 X56.8300 Y83.5000 
G01 Z-2.0000 F300.00 
G00 Z3.0000 
G00 X56.8300 Y86.0400 
G01 Z-2.0000 F300.00 
G00 Z3.0000 
G00 X70.8000 Y84.7700 
G01 Z-2.0000 F300.00 
G00 Z3.0000 
G00 X73.3400 Y84.7700 
G01 Z-2.0000 F300.00 
G00 Z3.0000 
G00 X75.8800 Y84.7700 
G01 Z-2.0000 F300.00 
G00 Z3.0000 
G00 X78.4200 Y84.7700 
G01 Z-2.0000 F300.00 
G00 Z3.0000 
G00 X78.4200 Y73.3400 
G01 Z-2.0000 F300.00 
G00 Z3.0000 
G00 X75.8800 Y73.3400 
G01 Z-2.0000 F300.00 
G00 Z3.0000 
G00 X72.0700 Y74.6100 
G01 Z-2.0000 F300.00 
G00 Z3.0000 
G00 X69.5300 Y74.6100 
G01 Z-2.0000 F300.00 
G00 Z3.0000 
G00 X69.5300 Y70.8000 
G01 Z-2.0000 F300.00 
G00 Z3.0000 
G00 X72.0700 Y70.8000 
G01 Z-2.0000 F300.00 
G00 Z3.0000 
G00 X75.8800 Y68.2600 
G01 Z-2.0000 F300.00 
G00 Z3.0000 
G00 X78.4200 Y68.2600 
G01 Z-2.0000 F300.00 
G00 Z3.0000 
G00 X80.9600 Y68.2600 
G01 Z-2.0000 F300.00 
G00 Z3.0000 
G00 X83.5000 Y68.2600 
G01 Z-2.0000 F300.00 
G00 Z3.0000 
G00 X83.5000 Y73.3400 
G01 Z-2.0000 F300.00 
G00 Z3.0000 
G00 X80.9600 Y73.3400 
G01 Z-2.0000 F300.00 
G00 Z3.0000 
G00 X80.9600 Y56.8300 
G01 Z-2.0000 F300.00 
G00 Z3.0000 
G00 X83.5000 Y56.8300 
G01 Z-2.0000 F300.00 
G00 Z3.0000 
G00 X78.4200 Y56.8300 
G01 Z-2.0000 F300.00 
G00 Z3.0000 
G00 X75.8800 Y56.8300 
G01 Z-2.0000 F300.00 
G00 Z3.0000 
G00 X75.8800 Y51.1150 
G01 Z-2.0000 F300.00 
G00 Z3.0000 
G00 X73.3400 Y51.1150 
G01 Z-2.0000 F300.00 
G00 Z3.0000 
G00 X78.4200 Y51.1150 
G01 Z-2.0000 F300.00 
G00 Z3.0000 
G00 X80.9600 Y51.1150 
G01 Z-2.0000 F300.00 
G00 Z3.0000 
G00 X83.5000 Y51.1150 
G01 Z-2.0000 F300.00 
G00 Z3.0000 
G00 X83.5000 Y46.6700 
G01 Z-2.0000 F300.00 
G00 Z3.0000 
G00 X83.5000 Y44.1300 
G01 Z-2.0000 F300.00 
G00 Z3.0000 
G00 X83.5000 Y41.5900 
G01 Z-2.0000 F300.00 
G00 Z3.0000 
G00 X83.5000 Y39.0500 
G01 Z-2.0000 F300.00 
G00 Z3.0000 
G00 X83.5000 Y31.4300 
G01 Z-2.0000 F300.00 
G00 Z3.0000 
G00 X83.5000 Y28.8900 
G01 Z-2.0000 F300.00 
G00 Z3.0000 
G00 X31.4300 Y64.4500 
G01 Z-2.0000 F300.00 
G00 Z3.0000 
G00 X31.4300 Y66.9900 
G01 Z-2.0000 F300.00 
G00 Z3.0000 
G00 X31.4300 Y69.5300 
G01 Z-2.0000 F300.00 
G00 Z3.0000 
M05
G00 Z25.4000 
G00 X0.0000 Y0.0000 
G00 Z3.0000 
M03
G04 P5.000000
G00 X72.5780 Y36.3830 
G01 Z-2.0000 F300.00 
G00 Z3.0000 
G00 X75.1180 Y36.3830 
G01 Z-2.0000 F300.00 
G00 Z3.0000 
G00 X77.6580 Y36.3830 
G01 Z-2.0000 F300.00 
G00 Z3.0000 
M05
G00 Z25.4000 
G00 X0.0000 Y0.0000 
G00 Z3.0000 
M03
G04 P5.000000
G00 X24.8260 Y24.4450 
G01 Z-2.0000 F300.00 
G00 Z3.0000 
G00 X87.0560 Y24.4450 
G01 Z-2.0000 F300.00 
G00 Z3.0000 
G00 X87.0560 Y97.9780 
G01 Z-2.0000 F300.00 
G00 Z3.0000 
G00 X24.8260 Y98.7400 
G01 Z-2.0000 F300.00 
G00 Z3.0000 
M05
G00 Z25.4000 
G00 X0.0000 Y0.0000 
G00 Z3.0000 
M03
G04 P5.000000
G00 X75.1180 Y18.8570 
G01 Z-2.0000 F300.00 
G00 Z3.0000 
T01 
G00 Z12.0000 
M05
M02
