(.../PCB/ulp/pcb-gcode/pcb-gcode.ulp)
(Copyright 2005 - 2012 by John Johnson)
(See readme.txt for licensing terms.)
(This file generated from the board:)
(.../PCB/Eagle Projects/NSP2/NSP2C.brd)
(Current profile is .../Design/PCB/ulp/profiles/generic.pp  )
(This file generated 10/27/17 7:23 PM)
(Settings from pcb-machine.h)
(spindle on time = 5.0000)
(  Tool Size)
(0.2500 )
(spindle speed = 20000.0000)
(tool change at 0.0000 0.0000 25.4000 )
(feed rate xy = F200.00 )
(feed rate z  = F200.00 )
(Z Axis Settings)
(  High     Up        Down     Drill)
(12.0000 	3.0000 	-0.1778 	-2.0000 )
(Settings from pcb-defaults.h)
(isolate min = 0.0000)
(isolate max = 0.5080)
(isolate step = 0.2500)
(Generated bottom outlines, bottom drill, )
(Unit of measure: mm)
(Metric Mode)
G21
(Absolute Coordinates)
G90
S20000
G00 Z12.0000 
G00 X0.0000 Y0.0000 
M03
G04 P5.000000
G00 Z3.0000 
G00 X23.1548 Y22.9794 
G01 Z-0.1778 F200.00 
G01 X23.3604 Y22.7738 F200.00 
G01 X23.5911 Y22.5968 
G01 X23.8429 Y22.4515 
G01 X24.1115 Y22.3402 
G01 X24.3924 Y22.2649 
G01 X24.6806 Y22.2270 
G01 X24.9714 Y22.2270 
G01 X25.2596 Y22.2649 
G01 X25.5405 Y22.3402 
G01 X25.8091 Y22.4515 
G01 X26.0609 Y22.5968 
G01 X26.2916 Y22.7738 
G01 X26.4972 Y22.9794 
G01 X26.6742 Y23.2101 
G01 X26.8195 Y23.4619 
G01 X26.9308 Y23.7305 
G01 X27.0060 Y24.0114 
G01 X27.0440 Y24.2996 
G01 X27.0440 Y24.5904 
G01 X27.0060 Y24.8786 
G01 X26.9308 Y25.1595 
G01 X26.8195 Y25.4281 
G01 X26.6742 Y25.6799 
G01 X26.4972 Y25.9106 
G01 X26.2916 Y26.1162 
G01 X26.0609 Y26.2932 
G01 X25.8091 Y26.4385 
G01 X25.5405 Y26.5498 
G01 X25.2596 Y26.6250 
G01 X24.9714 Y26.6630 
G01 X24.6806 Y26.6630 
G01 X24.3924 Y26.6250 
G01 X24.1115 Y26.5498 
G01 X23.8429 Y26.4385 
G01 X23.5911 Y26.2932 
G01 X23.3604 Y26.1162 
G01 X23.1548 Y25.9106 
G01 X22.9778 Y25.6799 
G01 X22.8325 Y25.4281 
G01 X22.7212 Y25.1595 
G01 X22.6459 Y24.8786 
G01 X22.6080 Y24.5904 
G01 X22.6080 Y24.2996 
G01 X22.6459 Y24.0114 
G01 X22.7212 Y23.7305 
G01 X22.8325 Y23.4619 
G01 X22.9778 Y23.2101 
G01 X23.1548 Y22.9794 
G00 Z3.0000 
G00 X27.2869 Y29.7616 
G01 Z-0.1778 F200.00 
G01 X27.3740 Y29.6745 F200.00 
G01 X27.4764 Y29.6061 
G01 X27.5901 Y29.5590 
G01 X27.7108 Y29.5350 
G01 X47.5824 Y29.5350 
G01 X47.5364 Y29.3933 
G01 X47.5102 Y29.2278 
G01 X47.5102 Y29.0602 
G01 X47.5364 Y28.8947 
G01 X47.5882 Y28.7353 
G01 X47.6643 Y28.5859 
G01 X47.7628 Y28.4503 
G01 X47.8813 Y28.3318 
G01 X48.0169 Y28.2333 
G01 X48.1663 Y28.1572 
G01 X48.3257 Y28.1054 
G01 X48.4912 Y28.0792 
G01 X48.6588 Y28.0792 
G01 X48.8243 Y28.1054 
G01 X48.9837 Y28.1572 
G01 X49.1331 Y28.2333 
G01 X49.2687 Y28.3318 
G01 X49.3872 Y28.4503 
G01 X49.4857 Y28.5859 
G01 X49.5618 Y28.7353 
G01 X49.6136 Y28.8947 
G01 X49.6398 Y29.0602 
G01 X49.6398 Y29.2278 
G01 X49.6136 Y29.3933 
G01 X49.5618 Y29.5527 
G01 X49.4857 Y29.7021 
G01 X49.3872 Y29.8377 
G01 X49.2687 Y29.9562 
G01 X49.2000 Y30.0061 
G01 X49.2000 Y30.2216 
G01 X49.1760 Y30.3423 
G01 X49.1289 Y30.4560 
G01 X49.0605 Y30.5584 
G01 X48.9734 Y30.6455 
G01 X48.8710 Y30.7139 
G01 X48.7573 Y30.7610 
G01 X48.6366 Y30.7850 
G01 X28.3974 Y30.7850 
G01 X28.3974 Y38.4250 
G01 X42.9216 Y38.4250 
G01 X43.0423 Y38.4490 
G01 X43.1560 Y38.4961 
G01 X43.2584 Y38.5645 
G01 X43.3455 Y38.6516 
G01 X43.4139 Y38.7540 
G01 X43.4610 Y38.8677 
G01 X43.4850 Y38.9884 
G01 X43.4850 Y72.7150 
G01 X53.0816 Y72.7150 
G01 X53.2023 Y72.7390 
G01 X53.3160 Y72.7861 
G01 X53.4184 Y72.8545 
G01 X53.5055 Y72.9416 
G01 X53.5739 Y73.0439 
G01 X53.6210 Y73.1577 
G01 X53.6450 Y73.2784 
G01 X53.6450 Y77.7950 
G01 X55.9679 Y77.7950 
G01 X56.0178 Y77.7263 
G01 X56.1363 Y77.6078 
G01 X56.2719 Y77.5093 
G01 X56.4213 Y77.4332 
G01 X56.5807 Y77.3814 
G01 X56.7462 Y77.3552 
G01 X56.9138 Y77.3552 
G01 X57.0793 Y77.3814 
G01 X57.2387 Y77.4332 
G01 X57.3881 Y77.5093 
G01 X57.5237 Y77.6078 
G01 X57.6422 Y77.7263 
G01 X57.6921 Y77.7950 
G01 X71.4450 Y77.7950 
G01 X71.4450 Y75.4721 
G01 X71.3763 Y75.4222 
G01 X71.2578 Y75.3037 
G01 X71.1593 Y75.1681 
G01 X71.0832 Y75.0187 
G01 X71.0314 Y74.8593 
G01 X71.0052 Y74.6938 
G01 X71.0052 Y74.5262 
G01 X71.0314 Y74.3607 
G01 X71.0832 Y74.2013 
G01 X71.1593 Y74.0519 
G01 X71.2578 Y73.9163 
G01 X71.3763 Y73.7978 
G01 X71.4450 Y73.7479 
G01 X71.4450 Y71.6621 
G01 X71.3763 Y71.6122 
G01 X71.2578 Y71.4937 
G01 X71.1593 Y71.3581 
G01 X71.0832 Y71.2087 
G01 X71.0314 Y71.0493 
G01 X71.0052 Y70.8838 
G01 X71.0052 Y70.7162 
G01 X71.0314 Y70.5507 
G01 X71.0832 Y70.3913 
G01 X71.1593 Y70.2419 
G01 X71.2578 Y70.1063 
G01 X71.3763 Y69.9878 
G01 X71.5119 Y69.8893 
G01 X71.6613 Y69.8132 
G01 X71.8207 Y69.7614 
G01 X71.9862 Y69.7352 
G01 X72.1538 Y69.7352 
G01 X72.3193 Y69.7614 
G01 X72.4787 Y69.8132 
G01 X72.6281 Y69.8893 
G01 X72.7637 Y69.9878 
G01 X72.8822 Y70.1063 
G01 X72.9807 Y70.2419 
G01 X73.0568 Y70.3913 
G01 X73.1086 Y70.5507 
G01 X73.1348 Y70.7162 
G01 X73.1348 Y70.8838 
G01 X73.1086 Y71.0493 
G01 X73.0568 Y71.2087 
G01 X72.9807 Y71.3581 
G01 X72.8822 Y71.4937 
G01 X72.7637 Y71.6122 
G01 X72.6950 Y71.6621 
G01 X72.6950 Y73.7479 
G01 X72.7637 Y73.7978 
G01 X72.8822 Y73.9163 
G01 X72.9807 Y74.0519 
G01 X73.0568 Y74.2013 
G01 X73.1086 Y74.3607 
G01 X73.1348 Y74.5262 
G01 X73.1348 Y74.6938 
G01 X73.1086 Y74.8593 
G01 X73.0568 Y75.0187 
G01 X72.9807 Y75.1681 
G01 X72.8822 Y75.3037 
G01 X72.7637 Y75.4222 
G01 X72.6950 Y75.4721 
G01 X72.6950 Y77.7950 
G01 X80.3350 Y77.7950 
G01 X80.3350 Y74.2021 
G01 X80.2663 Y74.1522 
G01 X80.1478 Y74.0337 
G01 X80.0493 Y73.8981 
G01 X79.9732 Y73.7487 
G01 X79.9214 Y73.5893 
G01 X79.8952 Y73.4238 
G01 X79.8952 Y73.2562 
G01 X79.9214 Y73.0907 
G01 X79.9732 Y72.9313 
G01 X80.0493 Y72.7819 
G01 X80.1478 Y72.6463 
G01 X80.2663 Y72.5278 
G01 X80.3350 Y72.4779 
G01 X80.3350 Y69.1221 
G01 X80.2663 Y69.0722 
G01 X80.1478 Y68.9537 
G01 X80.0493 Y68.8181 
G01 X79.9732 Y68.6687 
G01 X79.9214 Y68.5093 
G01 X79.8952 Y68.3438 
G01 X79.8952 Y68.1762 
G01 X79.9214 Y68.0107 
G01 X79.9732 Y67.8513 
G01 X80.0493 Y67.7019 
G01 X80.1478 Y67.5663 
G01 X80.2663 Y67.4478 
G01 X80.3350 Y67.3979 
G01 X80.3350 Y57.6921 
G01 X80.2663 Y57.6422 
G01 X80.1478 Y57.5237 
G01 X80.0493 Y57.3881 
G01 X79.9732 Y57.2387 
G01 X79.9214 Y57.0793 
G01 X79.8952 Y56.9138 
G01 X79.8952 Y56.7462 
G01 X79.9214 Y56.5807 
G01 X79.9732 Y56.4213 
G01 X80.0493 Y56.2719 
G01 X80.1478 Y56.1363 
G01 X80.2663 Y56.0178 
G01 X80.3350 Y55.9679 
G01 X80.3350 Y51.9771 
G01 X80.2663 Y51.9272 
G01 X80.1478 Y51.8087 
G01 X80.0493 Y51.6731 
G01 X79.9732 Y51.5237 
G01 X79.9214 Y51.3643 
G01 X79.8952 Y51.1988 
G01 X79.8952 Y51.0312 
G01 X79.9214 Y50.8657 
G01 X79.9732 Y50.7063 
G01 X80.0186 Y50.6171 
G01 X77.0626 Y44.6066 
G01 X74.4830 Y44.6066 
G01 X74.4431 Y44.6093 
G01 X74.4216 Y44.6066 
G01 X74.4000 Y44.6066 
G01 X74.3607 Y44.5988 
G01 X74.3210 Y44.5937 
G01 X74.3005 Y44.5868 
G01 X74.2793 Y44.5826 
G01 X74.2423 Y44.5672 
G01 X74.2043 Y44.5545 
G01 X74.1855 Y44.5437 
G01 X74.1655 Y44.5355 
G01 X74.1322 Y44.5132 
G01 X74.0974 Y44.4933 
G01 X74.0811 Y44.4791 
G01 X74.0632 Y44.4671 
G01 X74.0348 Y44.4387 
G01 X74.0046 Y44.4124 
G01 X73.9914 Y44.3953 
G01 X73.9761 Y44.3800 
G01 X73.9539 Y44.3467 
G01 X73.9293 Y44.3150 
G01 X73.9197 Y44.2956 
G01 X73.9077 Y44.2776 
G01 X73.8924 Y44.2406 
G01 X72.0410 Y40.5167 
G01 X72.0347 Y40.5080 
G01 X72.0136 Y40.4617 
G01 X71.9909 Y40.4161 
G01 X71.9881 Y40.4057 
G01 X71.9837 Y40.3959 
G01 X71.9720 Y40.3464 
G01 X71.9587 Y40.2973 
G01 X71.9580 Y40.2866 
G01 X71.9555 Y40.2761 
G01 X71.9537 Y40.2252 
G01 X71.9502 Y40.1745 
G01 X71.9516 Y40.1638 
G01 X71.8728 Y37.8782 
G01 X71.8298 Y37.8352 
G01 X71.7244 Y37.6774 
G01 X71.6518 Y37.5022 
G01 X71.6148 Y37.3161 
G01 X71.6148 Y35.8541 
G01 X70.9217 Y34.4680 
G01 X62.9548 Y34.4680 
G01 X62.9025 Y34.5203 
G01 X62.7780 Y34.6035 
G01 X62.6397 Y34.6608 
G01 X62.4929 Y34.6900 
G01 X62.3431 Y34.6900 
G01 X62.1963 Y34.6608 
G01 X62.0580 Y34.6035 
G01 X61.9335 Y34.5203 
G01 X61.8277 Y34.4145 
G01 X61.7445 Y34.2900 
G01 X61.6872 Y34.1517 
G01 X61.6580 Y34.0049 
G01 X61.6580 Y33.8551 
G01 X61.6872 Y33.7083 
G01 X61.7445 Y33.5700 
G01 X61.8277 Y33.4455 
G01 X61.9335 Y33.3397 
G01 X62.0580 Y33.2565 
G01 X62.1963 Y33.1992 
G01 X62.3431 Y33.1700 
G01 X62.4929 Y33.1700 
G01 X62.6397 Y33.1992 
G01 X62.6851 Y33.2180 
G01 X71.2858 Y33.2180 
G01 X71.3251 Y33.2152 
G01 X71.3472 Y33.2180 
G01 X71.3696 Y33.2180 
G01 X71.4082 Y33.2257 
G01 X71.4472 Y33.2306 
G01 X71.4684 Y33.2377 
G01 X71.4903 Y33.2420 
G01 X71.5267 Y33.2571 
G01 X71.5640 Y33.2695 
G01 X71.5834 Y33.2806 
G01 X71.6040 Y33.2891 
G01 X71.6368 Y33.3110 
G01 X71.6710 Y33.3305 
G01 X71.6879 Y33.3451 
G01 X71.7064 Y33.3575 
G01 X71.7342 Y33.3854 
G01 X71.7640 Y33.4112 
G01 X71.7777 Y33.4288 
G01 X71.7935 Y33.4446 
G01 X71.8153 Y33.4773 
G01 X71.8395 Y33.5084 
G01 X71.8495 Y33.5284 
G01 X71.8619 Y33.5470 
G01 X71.8769 Y33.5833 
G01 X72.3858 Y34.6010 
G01 X72.4831 Y34.5816 
G01 X72.6729 Y34.5816 
G01 X72.8590 Y34.6186 
G01 X73.0342 Y34.6912 
G01 X73.1920 Y34.7966 
G01 X73.3262 Y34.9308 
G01 X73.4316 Y35.0886 
G01 X73.5042 Y35.2638 
G01 X73.5412 Y35.4499 
G01 X73.5412 Y37.3161 
G01 X73.5042 Y37.5022 
G01 X73.4316 Y37.6774 
G01 X73.3262 Y37.8352 
G01 X73.1920 Y37.9694 
G01 X73.1282 Y38.0120 
G01 X73.1980 Y40.0361 
G01 X74.8488 Y43.3566 
G01 X77.4316 Y43.3566 
G01 X77.4730 Y43.3539 
G01 X77.4931 Y43.3566 
G01 X77.5133 Y43.3566 
G01 X77.5540 Y43.3647 
G01 X77.5950 Y43.3701 
G01 X77.6142 Y43.3767 
G01 X77.6341 Y43.3806 
G01 X77.6723 Y43.3965 
G01 X77.7116 Y43.4098 
G01 X77.7291 Y43.4200 
G01 X77.7478 Y43.4277 
G01 X77.7822 Y43.4507 
G01 X77.8181 Y43.4715 
G01 X77.8333 Y43.4849 
G01 X77.8502 Y43.4961 
G01 X77.8795 Y43.5254 
G01 X77.9106 Y43.5528 
G01 X77.9229 Y43.5689 
G01 X77.9372 Y43.5832 
G01 X77.9602 Y43.6176 
G01 X77.9854 Y43.6505 
G01 X77.9944 Y43.6687 
G01 X78.0056 Y43.6855 
G01 X78.0215 Y43.7238 
G01 X81.1403 Y50.0655 
G01 X81.2093 Y50.0764 
G01 X81.3687 Y50.1282 
G01 X81.5181 Y50.2043 
G01 X81.6537 Y50.3028 
G01 X81.7722 Y50.4213 
G01 X81.8707 Y50.5569 
G01 X81.9468 Y50.7063 
G01 X81.9986 Y50.8657 
G01 X82.0248 Y51.0312 
G01 X82.0248 Y51.1988 
G01 X81.9986 Y51.3643 
G01 X81.9468 Y51.5237 
G01 X81.8707 Y51.6731 
G01 X81.7722 Y51.8087 
G01 X81.6537 Y51.9272 
G01 X81.5850 Y51.9771 
G01 X81.5850 Y55.9679 
G01 X81.6537 Y56.0178 
G01 X81.7722 Y56.1363 
G01 X81.8707 Y56.2719 
G01 X81.9468 Y56.4213 
G01 X81.9986 Y56.5807 
G01 X82.0248 Y56.7462 
G01 X82.0248 Y56.9138 
G01 X81.9986 Y57.0793 
G01 X81.9468 Y57.2387 
G01 X81.8707 Y57.3881 
G01 X81.7722 Y57.5237 
G01 X81.6537 Y57.6422 
G01 X81.5850 Y57.6921 
G01 X81.5850 Y67.3979 
G01 X81.6537 Y67.4478 
G01 X81.7722 Y67.5663 
G01 X81.8707 Y67.7019 
G01 X81.9468 Y67.8513 
G01 X81.9986 Y68.0107 
G01 X82.0248 Y68.1762 
G01 X82.0248 Y68.3438 
G01 X81.9986 Y68.5093 
G01 X81.9468 Y68.6687 
G01 X81.8707 Y68.8181 
G01 X81.7722 Y68.9537 
G01 X81.6537 Y69.0722 
G01 X81.5850 Y69.1221 
G01 X81.5850 Y72.4779 
G01 X81.6537 Y72.5278 
G01 X81.7722 Y72.6463 
G01 X81.8707 Y72.7819 
G01 X81.9468 Y72.9313 
G01 X81.9986 Y73.0907 
G01 X82.0248 Y73.2562 
G01 X82.0248 Y73.4238 
G01 X81.9986 Y73.5893 
G01 X81.9468 Y73.7487 
G01 X81.8707 Y73.8981 
G01 X81.7722 Y74.0337 
G01 X81.6537 Y74.1522 
G01 X81.5850 Y74.2021 
G01 X81.5850 Y94.9916 
G01 X81.5610 Y95.1123 
G01 X81.5139 Y95.2260 
G01 X81.4455 Y95.3284 
G01 X81.3584 Y95.4155 
G01 X81.2560 Y95.4839 
G01 X81.1423 Y95.5310 
G01 X81.0216 Y95.5550 
G01 X34.2402 Y95.5550 
G01 X34.1948 Y95.5573 
G01 X34.1787 Y95.5550 
G01 X34.1624 Y95.5550 
G01 X34.1179 Y95.5461 
G01 X34.0730 Y95.5396 
G01 X34.0577 Y95.5342 
G01 X34.0417 Y95.5310 
G01 X33.9998 Y95.5136 
G01 X30.8908 Y94.4104 
G01 X30.8451 Y94.4437 
G01 X30.6957 Y94.5198 
G01 X30.5363 Y94.5716 
G01 X30.3708 Y94.5978 
G01 X30.2032 Y94.5978 
G01 X30.0377 Y94.5716 
G01 X29.8783 Y94.5198 
G01 X29.7289 Y94.4437 
G01 X29.5933 Y94.3452 
G01 X29.4748 Y94.2267 
G01 X29.4249 Y94.1580 
G01 X27.7108 Y94.1580 
G01 X27.5901 Y94.1340 
G01 X27.4764 Y94.0869 
G01 X27.3740 Y94.0185 
G01 X27.2869 Y93.9314 
G01 X27.2185 Y93.8290 
G01 X27.1714 Y93.7153 
G01 X27.1474 Y93.5946 
G01 X27.1474 Y30.0984 
G01 X27.1714 Y29.9777 
G01 X27.2185 Y29.8640 
G01 X27.2869 Y29.7616 
G00 Z3.0000 
G00 X28.3974 Y39.6750 
G01 Z-0.1778 F200.00 
G01 X28.3974 Y66.3650 F200.00 
G01 X30.5679 Y66.3650 
G01 X30.6178 Y66.2963 
G01 X30.7363 Y66.1778 
G01 X30.8719 Y66.0793 
G01 X31.0213 Y66.0032 
G01 X31.1807 Y65.9514 
G01 X31.3462 Y65.9252 
G01 X31.5138 Y65.9252 
G01 X31.6793 Y65.9514 
G01 X31.8387 Y66.0032 
G01 X31.9881 Y66.0793 
G01 X32.1237 Y66.1778 
G01 X32.2422 Y66.2963 
G01 X32.2921 Y66.3650 
G01 X34.0316 Y66.3650 
G01 X34.1523 Y66.3890 
G01 X34.2660 Y66.4361 
G01 X34.3684 Y66.5045 
G01 X34.4555 Y66.5916 
G01 X34.5239 Y66.6940 
G01 X34.5710 Y66.8077 
G01 X34.5950 Y66.9284 
G01 X34.5950 Y82.8750 
G01 X38.1879 Y82.8750 
G01 X38.2378 Y82.8063 
G01 X38.3563 Y82.6878 
G01 X38.4919 Y82.5893 
G01 X38.6413 Y82.5132 
G01 X38.8007 Y82.4614 
G01 X38.9662 Y82.4352 
G01 X39.1338 Y82.4352 
G01 X39.2993 Y82.4614 
G01 X39.4587 Y82.5132 
G01 X39.6081 Y82.5893 
G01 X39.7437 Y82.6878 
G01 X39.8622 Y82.8063 
G01 X39.9607 Y82.9419 
G01 X40.0368 Y83.0913 
G01 X40.0886 Y83.2507 
G01 X40.1148 Y83.4162 
G01 X40.1148 Y83.5838 
G01 X40.0886 Y83.7493 
G01 X40.0368 Y83.9087 
G01 X39.9607 Y84.0581 
G01 X39.8622 Y84.1937 
G01 X39.7437 Y84.3122 
G01 X39.6081 Y84.4107 
G01 X39.4587 Y84.4868 
G01 X39.2993 Y84.5386 
G01 X39.1338 Y84.5648 
G01 X38.9662 Y84.5648 
G01 X38.8007 Y84.5386 
G01 X38.6413 Y84.4868 
G01 X38.4919 Y84.4107 
G01 X38.3563 Y84.3122 
G01 X38.2378 Y84.1937 
G01 X38.1879 Y84.1250 
G01 X33.9084 Y84.1250 
G01 X33.7877 Y84.1010 
G01 X33.6739 Y84.0539 
G01 X33.5716 Y83.9855 
G01 X33.4845 Y83.8984 
G01 X33.4161 Y83.7960 
G01 X33.3690 Y83.6823 
G01 X33.3450 Y83.5616 
G01 X33.3450 Y67.6150 
G01 X32.2921 Y67.6150 
G01 X32.2422 Y67.6837 
G01 X32.1237 Y67.8022 
G01 X31.9881 Y67.9007 
G01 X31.8387 Y67.9768 
G01 X31.6793 Y68.0286 
G01 X31.5138 Y68.0548 
G01 X31.3462 Y68.0548 
G01 X31.1807 Y68.0286 
G01 X31.0213 Y67.9768 
G01 X30.8719 Y67.9007 
G01 X30.7363 Y67.8022 
G01 X30.6178 Y67.6837 
G01 X30.5679 Y67.6150 
G01 X28.3974 Y67.6150 
G01 X28.3974 Y92.9080 
G01 X29.4249 Y92.9080 
G01 X29.4748 Y92.8393 
G01 X29.5933 Y92.7208 
G01 X29.7289 Y92.6223 
G01 X29.8783 Y92.5462 
G01 X30.0377 Y92.4944 
G01 X30.2032 Y92.4682 
G01 X30.3708 Y92.4682 
G01 X30.5363 Y92.4944 
G01 X30.6957 Y92.5462 
G01 X30.8451 Y92.6223 
G01 X30.9807 Y92.7208 
G01 X31.0992 Y92.8393 
G01 X31.1977 Y92.9749 
G01 X31.2738 Y93.1243 
G01 X31.3089 Y93.2324 
G01 X34.3316 Y94.3050 
G01 X80.3350 Y94.3050 
G01 X80.3350 Y85.3950 
G01 X79.2821 Y85.3950 
G01 X79.2322 Y85.4637 
G01 X79.1137 Y85.5822 
G01 X78.9781 Y85.6807 
G01 X78.8287 Y85.7568 
G01 X78.6693 Y85.8086 
G01 X78.5038 Y85.8348 
G01 X78.3362 Y85.8348 
G01 X78.1707 Y85.8086 
G01 X78.0113 Y85.7568 
G01 X77.8619 Y85.6807 
G01 X77.7263 Y85.5822 
G01 X77.6078 Y85.4637 
G01 X77.5093 Y85.3281 
G01 X77.4332 Y85.1787 
G01 X77.3814 Y85.0193 
G01 X77.3552 Y84.8538 
G01 X77.3552 Y84.6862 
G01 X77.3814 Y84.5207 
G01 X77.4332 Y84.3613 
G01 X77.5093 Y84.2119 
G01 X77.6078 Y84.0763 
G01 X77.7263 Y83.9578 
G01 X77.8619 Y83.8593 
G01 X78.0113 Y83.7832 
G01 X78.1707 Y83.7314 
G01 X78.3362 Y83.7052 
G01 X78.5038 Y83.7052 
G01 X78.6693 Y83.7314 
G01 X78.8287 Y83.7832 
G01 X78.9781 Y83.8593 
G01 X79.1137 Y83.9578 
G01 X79.2322 Y84.0763 
G01 X79.2821 Y84.1450 
G01 X80.3350 Y84.1450 
G01 X80.3350 Y79.0450 
G01 X57.6921 Y79.0450 
G01 X57.6422 Y79.1137 
G01 X57.5237 Y79.2322 
G01 X57.3881 Y79.3307 
G01 X57.2387 Y79.4068 
G01 X57.0793 Y79.4586 
G01 X56.9138 Y79.4848 
G01 X56.7462 Y79.4848 
G01 X56.5807 Y79.4586 
G01 X56.4213 Y79.4068 
G01 X56.2719 Y79.3307 
G01 X56.1363 Y79.2322 
G01 X56.0178 Y79.1137 
G01 X55.9679 Y79.0450 
G01 X52.9584 Y79.0450 
G01 X52.8377 Y79.0210 
G01 X52.7240 Y78.9739 
G01 X52.6216 Y78.9055 
G01 X52.5345 Y78.8184 
G01 X52.4661 Y78.7160 
G01 X52.4190 Y78.6023 
G01 X52.3950 Y78.4816 
G01 X52.3950 Y73.9650 
G01 X42.7984 Y73.9650 
G01 X42.6777 Y73.9410 
G01 X42.5639 Y73.8939 
G01 X42.4616 Y73.8255 
G01 X42.3745 Y73.7384 
G01 X42.3061 Y73.6360 
G01 X42.2590 Y73.5223 
G01 X42.2350 Y73.4016 
G01 X42.2350 Y39.6750 
G01 X28.3974 Y39.6750 
G00 Z3.0000 
G00 X38.2378 Y42.1663 
G01 Z-0.1778 F200.00 
G01 X38.3563 Y42.0478 F200.00 
G01 X38.4919 Y41.9493 
G01 X38.6413 Y41.8732 
G01 X38.8007 Y41.8214 
G01 X38.9662 Y41.7952 
G01 X39.1338 Y41.7952 
G01 X39.2993 Y41.8214 
G01 X39.4587 Y41.8732 
G01 X39.6081 Y41.9493 
G01 X39.7437 Y42.0478 
G01 X39.8622 Y42.1663 
G01 X39.9607 Y42.3019 
G01 X40.0368 Y42.4513 
G01 X40.0886 Y42.6107 
G01 X40.1148 Y42.7762 
G01 X40.1148 Y42.9438 
G01 X40.0886 Y43.1093 
G01 X40.0368 Y43.2687 
G01 X39.9607 Y43.4181 
G01 X39.8622 Y43.5537 
G01 X39.7437 Y43.6722 
G01 X39.6081 Y43.7707 
G01 X39.4587 Y43.8468 
G01 X39.2993 Y43.8986 
G01 X39.1338 Y43.9248 
G01 X38.9662 Y43.9248 
G01 X38.8007 Y43.8986 
G01 X38.6413 Y43.8468 
G01 X38.4919 Y43.7707 
G01 X38.3563 Y43.6722 
G01 X38.2378 Y43.5537 
G01 X38.1393 Y43.4181 
G01 X38.0632 Y43.2687 
G01 X38.0114 Y43.1093 
G01 X37.9852 Y42.9438 
G01 X37.9852 Y42.7762 
G01 X38.0114 Y42.6107 
G01 X38.0632 Y42.4513 
G01 X38.1393 Y42.3019 
G01 X38.2378 Y42.1663 
G00 Z3.0000 
G00 X38.2378 Y44.7063 
G01 Z-0.1778 F200.00 
G01 X38.3563 Y44.5878 F200.00 
G01 X38.4919 Y44.4893 
G01 X38.6413 Y44.4132 
G01 X38.8007 Y44.3614 
G01 X38.9662 Y44.3352 
G01 X39.1338 Y44.3352 
G01 X39.2993 Y44.3614 
G01 X39.4587 Y44.4132 
G01 X39.6081 Y44.4893 
G01 X39.7437 Y44.5878 
G01 X39.8622 Y44.7063 
G01 X39.9607 Y44.8419 
G01 X40.0368 Y44.9913 
G01 X40.0886 Y45.1507 
G01 X40.1148 Y45.3162 
G01 X40.1148 Y45.4838 
G01 X40.0886 Y45.6493 
G01 X40.0368 Y45.8087 
G01 X39.9607 Y45.9581 
G01 X39.8622 Y46.0937 
G01 X39.7437 Y46.2122 
G01 X39.6081 Y46.3107 
G01 X39.4587 Y46.3868 
G01 X39.2993 Y46.4386 
G01 X39.1338 Y46.4648 
G01 X38.9662 Y46.4648 
G01 X38.8007 Y46.4386 
G01 X38.6413 Y46.3868 
G01 X38.4919 Y46.3107 
G01 X38.3563 Y46.2122 
G01 X38.2378 Y46.0937 
G01 X38.1393 Y45.9581 
G01 X38.0632 Y45.8087 
G01 X38.0114 Y45.6493 
G01 X37.9852 Y45.4838 
G01 X37.9852 Y45.3162 
G01 X38.0114 Y45.1507 
G01 X38.0632 Y44.9913 
G01 X38.1393 Y44.8419 
G01 X38.2378 Y44.7063 
G00 Z3.0000 
G00 X38.2378 Y47.2463 
G01 Z-0.1778 F200.00 
G01 X38.3563 Y47.1278 F200.00 
G01 X38.4919 Y47.0293 
G01 X38.6413 Y46.9532 
G01 X38.8007 Y46.9014 
G01 X38.9662 Y46.8752 
G01 X39.1338 Y46.8752 
G01 X39.2993 Y46.9014 
G01 X39.4587 Y46.9532 
G01 X39.6081 Y47.0293 
G01 X39.7437 Y47.1278 
G01 X39.8622 Y47.2463 
G01 X39.9607 Y47.3819 
G01 X40.0368 Y47.5313 
G01 X40.0886 Y47.6907 
G01 X40.1148 Y47.8562 
G01 X40.1148 Y48.0238 
G01 X40.0886 Y48.1893 
G01 X40.0368 Y48.3487 
G01 X39.9607 Y48.4981 
G01 X39.8622 Y48.6337 
G01 X39.7437 Y48.7522 
G01 X39.6081 Y48.8507 
G01 X39.4587 Y48.9268 
G01 X39.2993 Y48.9786 
G01 X39.1338 Y49.0048 
G01 X38.9662 Y49.0048 
G01 X38.8007 Y48.9786 
G01 X38.6413 Y48.9268 
G01 X38.4919 Y48.8507 
G01 X38.3563 Y48.7522 
G01 X38.2378 Y48.6337 
G01 X38.1393 Y48.4981 
G01 X38.0632 Y48.3487 
G01 X38.0114 Y48.1893 
G01 X37.9852 Y48.0238 
G01 X37.9852 Y47.8562 
G01 X38.0114 Y47.6907 
G01 X38.0632 Y47.5313 
G01 X38.1393 Y47.3819 
G01 X38.2378 Y47.2463 
G00 Z3.0000 
G00 X38.2378 Y49.7863 
G01 Z-0.1778 F200.00 
G01 X38.3563 Y49.6678 F200.00 
G01 X38.4919 Y49.5693 
G01 X38.6413 Y49.4932 
G01 X38.8007 Y49.4414 
G01 X38.9662 Y49.4152 
G01 X39.1338 Y49.4152 
G01 X39.2993 Y49.4414 
G01 X39.4587 Y49.4932 
G01 X39.6081 Y49.5693 
G01 X39.7437 Y49.6678 
G01 X39.8622 Y49.7863 
G01 X39.9607 Y49.9219 
G01 X40.0368 Y50.0713 
G01 X40.0886 Y50.2307 
G01 X40.1148 Y50.3962 
G01 X40.1148 Y50.5638 
G01 X40.0886 Y50.7293 
G01 X40.0368 Y50.8887 
G01 X39.9607 Y51.0381 
G01 X39.8622 Y51.1737 
G01 X39.7437 Y51.2922 
G01 X39.6081 Y51.3907 
G01 X39.4587 Y51.4668 
G01 X39.2993 Y51.5186 
G01 X39.1338 Y51.5448 
G01 X38.9662 Y51.5448 
G01 X38.8007 Y51.5186 
G01 X38.6413 Y51.4668 
G01 X38.4919 Y51.3907 
G01 X38.3563 Y51.2922 
G01 X38.2378 Y51.1737 
G01 X38.1393 Y51.0381 
G01 X38.0632 Y50.8887 
G01 X38.0114 Y50.7293 
G01 X37.9852 Y50.5638 
G01 X37.9852 Y50.3962 
G01 X38.0114 Y50.2307 
G01 X38.0632 Y50.0713 
G01 X38.1393 Y49.9219 
G01 X38.2378 Y49.7863 
G00 Z3.0000 
G00 X38.2378 Y52.3263 
G01 Z-0.1778 F200.00 
G01 X38.3563 Y52.2078 F200.00 
G01 X38.4919 Y52.1093 
G01 X38.6413 Y52.0332 
G01 X38.8007 Y51.9814 
G01 X38.9662 Y51.9552 
G01 X39.1338 Y51.9552 
G01 X39.2993 Y51.9814 
G01 X39.4587 Y52.0332 
G01 X39.6081 Y52.1093 
G01 X39.7437 Y52.2078 
G01 X39.8622 Y52.3263 
G01 X39.9607 Y52.4619 
G01 X40.0368 Y52.6113 
G01 X40.0886 Y52.7707 
G01 X40.1148 Y52.9362 
G01 X40.1148 Y53.1038 
G01 X40.0886 Y53.2693 
G01 X40.0368 Y53.4287 
G01 X39.9607 Y53.5781 
G01 X39.8622 Y53.7137 
G01 X39.7437 Y53.8322 
G01 X39.6081 Y53.9307 
G01 X39.4587 Y54.0068 
G01 X39.2993 Y54.0586 
G01 X39.1338 Y54.0848 
G01 X38.9662 Y54.0848 
G01 X38.8007 Y54.0586 
G01 X38.6413 Y54.0068 
G01 X38.4919 Y53.9307 
G01 X38.3563 Y53.8322 
G01 X38.2378 Y53.7137 
G01 X38.1393 Y53.5781 
G01 X38.0632 Y53.4287 
G01 X38.0114 Y53.2693 
G01 X37.9852 Y53.1038 
G01 X37.9852 Y52.9362 
G01 X38.0114 Y52.7707 
G01 X38.0632 Y52.6113 
G01 X38.1393 Y52.4619 
G01 X38.2378 Y52.3263 
G00 Z3.0000 
G00 X38.2378 Y54.8663 
G01 Z-0.1778 F200.00 
G01 X38.3563 Y54.7478 F200.00 
G01 X38.4919 Y54.6493 
G01 X38.6413 Y54.5732 
G01 X38.8007 Y54.5214 
G01 X38.9662 Y54.4952 
G01 X39.1338 Y54.4952 
G01 X39.2993 Y54.5214 
G01 X39.4587 Y54.5732 
G01 X39.6081 Y54.6493 
G01 X39.7437 Y54.7478 
G01 X39.8622 Y54.8663 
G01 X39.9607 Y55.0019 
G01 X40.0368 Y55.1513 
G01 X40.0886 Y55.3107 
G01 X40.1148 Y55.4762 
G01 X40.1148 Y55.6438 
G01 X40.0886 Y55.8093 
G01 X40.0368 Y55.9687 
G01 X39.9607 Y56.1181 
G01 X39.8622 Y56.2537 
G01 X39.7437 Y56.3722 
G01 X39.6081 Y56.4707 
G01 X39.4587 Y56.5468 
G01 X39.2993 Y56.5986 
G01 X39.1338 Y56.6248 
G01 X38.9662 Y56.6248 
G01 X38.8007 Y56.5986 
G01 X38.6413 Y56.5468 
G01 X38.4919 Y56.4707 
G01 X38.3563 Y56.3722 
G01 X38.2378 Y56.2537 
G01 X38.1393 Y56.1181 
G01 X38.0632 Y55.9687 
G01 X38.0114 Y55.8093 
G01 X37.9852 Y55.6438 
G01 X37.9852 Y55.4762 
G01 X38.0114 Y55.3107 
G01 X38.0632 Y55.1513 
G01 X38.1393 Y55.0019 
G01 X38.2378 Y54.8663 
G00 Z3.0000 
G00 X38.2378 Y57.4063 
G01 Z-0.1778 F200.00 
G01 X38.3563 Y57.2878 F200.00 
G01 X38.4919 Y57.1893 
G01 X38.6413 Y57.1132 
G01 X38.8007 Y57.0614 
G01 X38.9662 Y57.0352 
G01 X39.1338 Y57.0352 
G01 X39.2993 Y57.0614 
G01 X39.4587 Y57.1132 
G01 X39.6081 Y57.1893 
G01 X39.7437 Y57.2878 
G01 X39.8622 Y57.4063 
G01 X39.9607 Y57.5419 
G01 X40.0368 Y57.6913 
G01 X40.0886 Y57.8507 
G01 X40.1148 Y58.0162 
G01 X40.1148 Y58.1838 
G01 X40.0886 Y58.3493 
G01 X40.0368 Y58.5087 
G01 X39.9607 Y58.6581 
G01 X39.8622 Y58.7937 
G01 X39.7437 Y58.9122 
G01 X39.6081 Y59.0107 
G01 X39.4587 Y59.0868 
G01 X39.2993 Y59.1386 
G01 X39.1338 Y59.1648 
G01 X38.9662 Y59.1648 
G01 X38.8007 Y59.1386 
G01 X38.6413 Y59.0868 
G01 X38.4919 Y59.0107 
G01 X38.3563 Y58.9122 
G01 X38.2378 Y58.7937 
G01 X38.1393 Y58.6581 
G01 X38.0632 Y58.5087 
G01 X38.0114 Y58.3493 
G01 X37.9852 Y58.1838 
G01 X37.9852 Y58.0162 
G01 X38.0114 Y57.8507 
G01 X38.0632 Y57.6913 
G01 X38.1393 Y57.5419 
G01 X38.2378 Y57.4063 
G00 Z3.0000 
G00 X38.2378 Y59.9463 
G01 Z-0.1778 F200.00 
G01 X38.3563 Y59.8278 F200.00 
G01 X38.4919 Y59.7293 
G01 X38.6413 Y59.6532 
G01 X38.8007 Y59.6014 
G01 X38.9662 Y59.5752 
G01 X39.1338 Y59.5752 
G01 X39.2993 Y59.6014 
G01 X39.4587 Y59.6532 
G01 X39.6081 Y59.7293 
G01 X39.7437 Y59.8278 
G01 X39.8622 Y59.9463 
G01 X39.9607 Y60.0819 
G01 X40.0368 Y60.2313 
G01 X40.0886 Y60.3907 
G01 X40.1148 Y60.5562 
G01 X40.1148 Y60.7238 
G01 X40.0886 Y60.8893 
G01 X40.0368 Y61.0487 
G01 X39.9607 Y61.1981 
G01 X39.8622 Y61.3337 
G01 X39.7437 Y61.4522 
G01 X39.6081 Y61.5507 
G01 X39.4587 Y61.6268 
G01 X39.2993 Y61.6786 
G01 X39.1338 Y61.7048 
G01 X38.9662 Y61.7048 
G01 X38.8007 Y61.6786 
G01 X38.6413 Y61.6268 
G01 X38.4919 Y61.5507 
G01 X38.3563 Y61.4522 
G01 X38.2378 Y61.3337 
G01 X38.1393 Y61.1981 
G01 X38.0632 Y61.0487 
G01 X38.0114 Y60.8893 
G01 X37.9852 Y60.7238 
G01 X37.9852 Y60.5562 
G01 X38.0114 Y60.3907 
G01 X38.0632 Y60.2313 
G01 X38.1393 Y60.0819 
G01 X38.2378 Y59.9463 
G00 Z3.0000 
G00 X38.2378 Y62.4863 
G01 Z-0.1778 F200.00 
G01 X38.3563 Y62.3678 F200.00 
G01 X38.4919 Y62.2693 
G01 X38.6413 Y62.1932 
G01 X38.8007 Y62.1414 
G01 X38.9662 Y62.1152 
G01 X39.1338 Y62.1152 
G01 X39.2993 Y62.1414 
G01 X39.4587 Y62.1932 
G01 X39.6081 Y62.2693 
G01 X39.7437 Y62.3678 
G01 X39.8622 Y62.4863 
G01 X39.9607 Y62.6219 
G01 X40.0368 Y62.7713 
G01 X40.0886 Y62.9307 
G01 X40.1148 Y63.0962 
G01 X40.1148 Y63.2638 
G01 X40.0886 Y63.4293 
G01 X40.0368 Y63.5887 
G01 X39.9607 Y63.7381 
G01 X39.8622 Y63.8737 
G01 X39.7437 Y63.9922 
G01 X39.6081 Y64.0907 
G01 X39.4587 Y64.1668 
G01 X39.2993 Y64.2186 
G01 X39.1338 Y64.2448 
G01 X38.9662 Y64.2448 
G01 X38.8007 Y64.2186 
G01 X38.6413 Y64.1668 
G01 X38.4919 Y64.0907 
G01 X38.3563 Y63.9922 
G01 X38.2378 Y63.8737 
G01 X38.1393 Y63.7381 
G01 X38.0632 Y63.5887 
G01 X38.0114 Y63.4293 
G01 X37.9852 Y63.2638 
G01 X37.9852 Y63.0962 
G01 X38.0114 Y62.9307 
G01 X38.0632 Y62.7713 
G01 X38.1393 Y62.6219 
G01 X38.2378 Y62.4863 
G00 Z3.0000 
G00 X38.2378 Y65.0263 
G01 Z-0.1778 F200.00 
G01 X38.3563 Y64.9078 F200.00 
G01 X38.4919 Y64.8093 
G01 X38.6413 Y64.7332 
G01 X38.8007 Y64.6814 
G01 X38.9662 Y64.6552 
G01 X39.1338 Y64.6552 
G01 X39.2993 Y64.6814 
G01 X39.4587 Y64.7332 
G01 X39.6081 Y64.8093 
G01 X39.7437 Y64.9078 
G01 X39.8622 Y65.0263 
G01 X39.9607 Y65.1619 
G01 X40.0368 Y65.3113 
G01 X40.0886 Y65.4707 
G01 X40.1148 Y65.6362 
G01 X40.1148 Y65.8038 
G01 X40.0886 Y65.9693 
G01 X40.0368 Y66.1287 
G01 X39.9607 Y66.2781 
G01 X39.8622 Y66.4137 
G01 X39.7437 Y66.5322 
G01 X39.6081 Y66.6307 
G01 X39.4587 Y66.7068 
G01 X39.2993 Y66.7586 
G01 X39.1338 Y66.7848 
G01 X38.9662 Y66.7848 
G01 X38.8007 Y66.7586 
G01 X38.6413 Y66.7068 
G01 X38.4919 Y66.6307 
G01 X38.3563 Y66.5322 
G01 X38.2378 Y66.4137 
G01 X38.1393 Y66.2781 
G01 X38.0632 Y66.1287 
G01 X38.0114 Y65.9693 
G01 X37.9852 Y65.8038 
G01 X37.9852 Y65.6362 
G01 X38.0114 Y65.4707 
G01 X38.0632 Y65.3113 
G01 X38.1393 Y65.1619 
G01 X38.2378 Y65.0263 
G00 Z3.0000 
G00 X37.1350 Y64.3884 
G01 Z-0.1778 F200.00 
G01 X37.1350 Y72.7150 F200.00 
G01 X38.1879 Y72.7150 
G01 X38.2378 Y72.6463 
G01 X38.3563 Y72.5278 
G01 X38.4919 Y72.4293 
G01 X38.6413 Y72.3532 
G01 X38.8007 Y72.3014 
G01 X38.9662 Y72.2752 
G01 X39.1338 Y72.2752 
G01 X39.2993 Y72.3014 
G01 X39.4587 Y72.3532 
G01 X39.6081 Y72.4293 
G01 X39.7437 Y72.5278 
G01 X39.8622 Y72.6463 
G01 X39.9607 Y72.7819 
G01 X40.0368 Y72.9313 
G01 X40.0886 Y73.0907 
G01 X40.1148 Y73.2562 
G01 X40.1148 Y73.4238 
G01 X40.0886 Y73.5893 
G01 X40.0368 Y73.7487 
G01 X39.9607 Y73.8981 
G01 X39.8622 Y74.0337 
G01 X39.7437 Y74.1522 
G01 X39.6081 Y74.2507 
G01 X39.4587 Y74.3268 
G01 X39.2993 Y74.3786 
G01 X39.1338 Y74.4048 
G01 X38.9662 Y74.4048 
G01 X38.8007 Y74.3786 
G01 X38.6413 Y74.3268 
G01 X38.4919 Y74.2507 
G01 X38.3563 Y74.1522 
G01 X38.2378 Y74.0337 
G01 X38.1879 Y73.9650 
G01 X36.4484 Y73.9650 
G01 X36.3277 Y73.9410 
G01 X36.2139 Y73.8939 
G01 X36.1116 Y73.8255 
G01 X36.0245 Y73.7384 
G01 X35.9561 Y73.6360 
G01 X35.9090 Y73.5223 
G01 X35.8850 Y73.4016 
G01 X35.8850 Y65.0750 
G01 X32.2921 Y65.0750 
G01 X32.2422 Y65.1437 
G01 X32.1237 Y65.2622 
G01 X31.9881 Y65.3607 
G01 X31.8387 Y65.4368 
G01 X31.6793 Y65.4886 
G01 X31.5138 Y65.5148 
G01 X31.3462 Y65.5148 
G01 X31.1807 Y65.4886 
G01 X31.0213 Y65.4368 
G01 X30.8719 Y65.3607 
G01 X30.7363 Y65.2622 
G01 X30.6178 Y65.1437 
G01 X30.5193 Y65.0081 
G01 X30.4432 Y64.8587 
G01 X30.3914 Y64.6993 
G01 X30.3652 Y64.5338 
G01 X30.3652 Y64.3662 
G01 X30.3914 Y64.2007 
G01 X30.4432 Y64.0413 
G01 X30.5193 Y63.8919 
G01 X30.6178 Y63.7563 
G01 X30.7363 Y63.6378 
G01 X30.8719 Y63.5393 
G01 X31.0213 Y63.4632 
G01 X31.1807 Y63.4114 
G01 X31.3462 Y63.3852 
G01 X31.5138 Y63.3852 
G01 X31.6793 Y63.4114 
G01 X31.8387 Y63.4632 
G01 X31.9881 Y63.5393 
G01 X32.1237 Y63.6378 
G01 X32.2422 Y63.7563 
G01 X32.2921 Y63.8250 
G01 X36.5716 Y63.8250 
G01 X36.6923 Y63.8490 
G01 X36.8060 Y63.8961 
G01 X36.9084 Y63.9645 
G01 X36.9955 Y64.0516 
G01 X37.0639 Y64.1540 
G01 X37.1110 Y64.2677 
G01 X37.1350 Y64.3884 
G00 Z3.0000 
G00 X38.2378 Y67.5663 
G01 Z-0.1778 F200.00 
G01 X38.3563 Y67.4478 F200.00 
G01 X38.4919 Y67.3493 
G01 X38.6413 Y67.2732 
G01 X38.8007 Y67.2214 
G01 X38.9662 Y67.1952 
G01 X39.1338 Y67.1952 
G01 X39.2993 Y67.2214 
G01 X39.4587 Y67.2732 
G01 X39.6081 Y67.3493 
G01 X39.7437 Y67.4478 
G01 X39.8622 Y67.5663 
G01 X39.9607 Y67.7019 
G01 X40.0368 Y67.8513 
G01 X40.0886 Y68.0107 
G01 X40.1148 Y68.1762 
G01 X40.1148 Y68.3438 
G01 X40.0886 Y68.5093 
G01 X40.0368 Y68.6687 
G01 X39.9607 Y68.8181 
G01 X39.8622 Y68.9537 
G01 X39.7437 Y69.0722 
G01 X39.6081 Y69.1707 
G01 X39.4587 Y69.2468 
G01 X39.2993 Y69.2986 
G01 X39.1338 Y69.3248 
G01 X38.9662 Y69.3248 
G01 X38.8007 Y69.2986 
G01 X38.6413 Y69.2468 
G01 X38.4919 Y69.1707 
G01 X38.3563 Y69.0722 
G01 X38.2378 Y68.9537 
G01 X38.1393 Y68.8181 
G01 X38.0632 Y68.6687 
G01 X38.0114 Y68.5093 
G01 X37.9852 Y68.3438 
G01 X37.9852 Y68.1762 
G01 X38.0114 Y68.0107 
G01 X38.0632 Y67.8513 
G01 X38.1393 Y67.7019 
G01 X38.2378 Y67.5663 
G00 Z3.0000 
G00 X38.2378 Y70.1063 
G01 Z-0.1778 F200.00 
G01 X38.3563 Y69.9878 F200.00 
G01 X38.4919 Y69.8893 
G01 X38.6413 Y69.8132 
G01 X38.8007 Y69.7614 
G01 X38.9662 Y69.7352 
G01 X39.1338 Y69.7352 
G01 X39.2993 Y69.7614 
G01 X39.4587 Y69.8132 
G01 X39.6081 Y69.8893 
G01 X39.7437 Y69.9878 
G01 X39.8622 Y70.1063 
G01 X39.9607 Y70.2419 
G01 X40.0368 Y70.3913 
G01 X40.0886 Y70.5507 
G01 X40.1148 Y70.7162 
G01 X40.1148 Y70.8838 
G01 X40.0886 Y71.0493 
G01 X40.0368 Y71.2087 
G01 X39.9607 Y71.3581 
G01 X39.8622 Y71.4937 
G01 X39.7437 Y71.6122 
G01 X39.6081 Y71.7107 
G01 X39.4587 Y71.7868 
G01 X39.2993 Y71.8386 
G01 X39.1338 Y71.8648 
G01 X38.9662 Y71.8648 
G01 X38.8007 Y71.8386 
G01 X38.6413 Y71.7868 
G01 X38.4919 Y71.7107 
G01 X38.3563 Y71.6122 
G01 X38.2378 Y71.4937 
G01 X38.1393 Y71.3581 
G01 X38.0632 Y71.2087 
G01 X38.0114 Y71.0493 
G01 X37.9852 Y70.8838 
G01 X37.9852 Y70.7162 
G01 X38.0114 Y70.5507 
G01 X38.0632 Y70.3913 
G01 X38.1393 Y70.2419 
G01 X38.2378 Y70.1063 
G00 Z3.0000 
G00 X38.2378 Y75.1863 
G01 Z-0.1778 F200.00 
G01 X38.3563 Y75.0678 F200.00 
G01 X38.4919 Y74.9693 
G01 X38.6413 Y74.8932 
G01 X38.8007 Y74.8414 
G01 X38.9662 Y74.8152 
G01 X39.1338 Y74.8152 
G01 X39.2993 Y74.8414 
G01 X39.4587 Y74.8932 
G01 X39.6081 Y74.9693 
G01 X39.7437 Y75.0678 
G01 X39.8622 Y75.1863 
G01 X39.9607 Y75.3219 
G01 X40.0368 Y75.4713 
G01 X40.0886 Y75.6307 
G01 X40.1148 Y75.7962 
G01 X40.1148 Y75.9638 
G01 X40.0886 Y76.1293 
G01 X40.0368 Y76.2887 
G01 X39.9607 Y76.4381 
G01 X39.8622 Y76.5737 
G01 X39.7437 Y76.6922 
G01 X39.6081 Y76.7907 
G01 X39.4587 Y76.8668 
G01 X39.2993 Y76.9186 
G01 X39.1338 Y76.9448 
G01 X38.9662 Y76.9448 
G01 X38.8007 Y76.9186 
G01 X38.6413 Y76.8668 
G01 X38.4919 Y76.7907 
G01 X38.3563 Y76.6922 
G01 X38.2378 Y76.5737 
G01 X38.1393 Y76.4381 
G01 X38.0632 Y76.2887 
G01 X38.0114 Y76.1293 
G01 X37.9852 Y75.9638 
G01 X37.9852 Y75.7962 
G01 X38.0114 Y75.6307 
G01 X38.0632 Y75.4713 
G01 X38.1393 Y75.3219 
G01 X38.2378 Y75.1863 
G00 Z3.0000 
G00 X38.2378 Y77.7263 
G01 Z-0.1778 F200.00 
G01 X38.3563 Y77.6078 F200.00 
G01 X38.4919 Y77.5093 
G01 X38.6413 Y77.4332 
G01 X38.8007 Y77.3814 
G01 X38.9662 Y77.3552 
G01 X39.1338 Y77.3552 
G01 X39.2993 Y77.3814 
G01 X39.4587 Y77.4332 
G01 X39.6081 Y77.5093 
G01 X39.7437 Y77.6078 
G01 X39.8622 Y77.7263 
G01 X39.9121 Y77.7950 
G01 X47.9361 Y77.7950 
G01 X47.9937 Y77.7943 
G01 X47.9976 Y77.7950 
G01 X48.0016 Y77.7950 
G01 X48.0581 Y77.8062 
G01 X48.1148 Y77.8168 
G01 X48.1184 Y77.8183 
G01 X48.1223 Y77.8190 
G01 X48.1756 Y77.8411 
G01 X48.2291 Y77.8625 
G01 X48.2324 Y77.8646 
G01 X48.2360 Y77.8661 
G01 X48.2840 Y77.8982 
G01 X48.3323 Y77.9296 
G01 X48.3351 Y77.9323 
G01 X48.3384 Y77.9345 
G01 X48.3791 Y77.9752 
G01 X48.4205 Y78.0155 
G01 X48.4227 Y78.0188 
G01 X48.4255 Y78.0216 
G01 X48.4574 Y78.0694 
G01 X48.4901 Y78.1171 
G01 X48.4917 Y78.1207 
G01 X48.4939 Y78.1240 
G01 X48.5159 Y78.1772 
G01 X48.5387 Y78.2302 
G01 X48.5395 Y78.2341 
G01 X48.5410 Y78.2377 
G01 X48.5522 Y78.2942 
G01 X48.5642 Y78.3506 
G01 X48.5642 Y78.3546 
G01 X48.5650 Y78.3584 
G01 X48.5650 Y78.4161 
G01 X48.6842 Y87.9550 
G01 X70.2808 Y87.9550 
G01 X70.2041 Y85.6532 
G01 X70.1063 Y85.5822 
G01 X69.9878 Y85.4637 
G01 X69.8893 Y85.3281 
G01 X69.8132 Y85.1787 
G01 X69.7614 Y85.0193 
G01 X69.7352 Y84.8538 
G01 X69.7352 Y84.6862 
G01 X69.7614 Y84.5207 
G01 X69.8132 Y84.3613 
G01 X69.8893 Y84.2119 
G01 X69.9878 Y84.0763 
G01 X70.1063 Y83.9578 
G01 X70.2419 Y83.8593 
G01 X70.3913 Y83.7832 
G01 X70.5507 Y83.7314 
G01 X70.7162 Y83.7052 
G01 X70.8838 Y83.7052 
G01 X71.0493 Y83.7314 
G01 X71.2087 Y83.7832 
G01 X71.3581 Y83.8593 
G01 X71.4937 Y83.9578 
G01 X71.6122 Y84.0763 
G01 X71.7107 Y84.2119 
G01 X71.7868 Y84.3613 
G01 X71.8386 Y84.5207 
G01 X71.8648 Y84.6862 
G01 X71.8648 Y84.8538 
G01 X71.8386 Y85.0193 
G01 X71.7868 Y85.1787 
G01 X71.7107 Y85.3281 
G01 X71.6122 Y85.4637 
G01 X71.4937 Y85.5822 
G01 X71.4534 Y85.6114 
G01 X71.5499 Y88.5081 
G01 X71.5520 Y88.5184 
G01 X71.5520 Y88.5696 
G01 X71.5537 Y88.6207 
G01 X71.5520 Y88.6311 
G01 X71.5520 Y88.6416 
G01 X71.5420 Y88.6917 
G01 X71.5337 Y88.7422 
G01 X71.5300 Y88.7520 
G01 X71.5280 Y88.7623 
G01 X71.5084 Y88.8095 
G01 X71.4904 Y88.8574 
G01 X71.4849 Y88.8664 
G01 X71.4809 Y88.8760 
G01 X71.4525 Y88.9185 
G01 X71.4255 Y88.9620 
G01 X71.4183 Y88.9697 
G01 X71.4125 Y88.9784 
G01 X71.3764 Y89.0145 
G01 X71.3414 Y89.0519 
G01 X71.3328 Y89.0580 
G01 X71.3254 Y89.0655 
G01 X71.2829 Y89.0939 
G01 X71.2413 Y89.1237 
G01 X71.2318 Y89.1280 
G01 X71.2230 Y89.1339 
G01 X71.1758 Y89.1534 
G01 X71.1292 Y89.1746 
G01 X71.1190 Y89.1770 
G01 X71.1093 Y89.1810 
G01 X71.0592 Y89.1910 
G01 X71.0093 Y89.2026 
G01 X70.9988 Y89.2030 
G01 X70.9886 Y89.2050 
G01 X70.9374 Y89.2050 
G01 X70.8863 Y89.2067 
G01 X70.8759 Y89.2050 
G01 X48.0709 Y89.2050 
G01 X48.0133 Y89.2057 
G01 X48.0094 Y89.2050 
G01 X48.0054 Y89.2050 
G01 X47.9489 Y89.1938 
G01 X47.8922 Y89.1832 
G01 X47.8886 Y89.1817 
G01 X47.8847 Y89.1810 
G01 X47.8313 Y89.1589 
G01 X47.7779 Y89.1375 
G01 X47.7746 Y89.1354 
G01 X47.7709 Y89.1339 
G01 X47.7230 Y89.1018 
G01 X47.6747 Y89.0704 
G01 X47.6719 Y89.0677 
G01 X47.6686 Y89.0655 
G01 X47.6279 Y89.0248 
G01 X47.5865 Y88.9844 
G01 X47.5843 Y88.9812 
G01 X47.5815 Y88.9784 
G01 X47.5495 Y88.9305 
G01 X47.5169 Y88.8829 
G01 X47.5153 Y88.8793 
G01 X47.5131 Y88.8760 
G01 X47.4911 Y88.8228 
G01 X47.4683 Y88.7698 
G01 X47.4675 Y88.7659 
G01 X47.4660 Y88.7623 
G01 X47.4548 Y88.7057 
G01 X47.4428 Y88.6494 
G01 X47.4428 Y88.6454 
G01 X47.4420 Y88.6416 
G01 X47.4420 Y88.5839 
G01 X47.3228 Y79.0450 
G01 X39.9121 Y79.0450 
G01 X39.8622 Y79.1137 
G01 X39.7437 Y79.2322 
G01 X39.6081 Y79.3307 
G01 X39.4587 Y79.4068 
G01 X39.2993 Y79.4586 
G01 X39.1338 Y79.4848 
G01 X38.9662 Y79.4848 
G01 X38.8007 Y79.4586 
G01 X38.6413 Y79.4068 
G01 X38.4919 Y79.3307 
G01 X38.3563 Y79.2322 
G01 X38.2378 Y79.1137 
G01 X38.1393 Y78.9781 
G01 X38.0632 Y78.8287 
G01 X38.0114 Y78.6693 
G01 X37.9852 Y78.5038 
G01 X37.9852 Y78.3362 
G01 X38.0114 Y78.1707 
G01 X38.0632 Y78.0113 
G01 X38.1393 Y77.8619 
G01 X38.2378 Y77.7263 
G00 Z3.0000 
G00 X38.2378 Y80.2663 
G01 Z-0.1778 F200.00 
G01 X38.3563 Y80.1478 F200.00 
G01 X38.4919 Y80.0493 
G01 X38.6413 Y79.9732 
G01 X38.8007 Y79.9214 
G01 X38.9662 Y79.8952 
G01 X39.1338 Y79.8952 
G01 X39.2993 Y79.9214 
G01 X39.4587 Y79.9732 
G01 X39.6081 Y80.0493 
G01 X39.7437 Y80.1478 
G01 X39.8622 Y80.2663 
G01 X39.9121 Y80.3350 
G01 X44.1916 Y80.3350 
G01 X44.3123 Y80.3590 
G01 X44.4260 Y80.4061 
G01 X44.5284 Y80.4745 
G01 X44.6155 Y80.5616 
G01 X44.6839 Y80.6639 
G01 X44.7310 Y80.7777 
G01 X44.7550 Y80.8984 
G01 X44.7550 Y90.2410 
G01 X72.7150 Y90.2410 
G01 X72.7150 Y85.6321 
G01 X72.6463 Y85.5822 
G01 X72.5278 Y85.4637 
G01 X72.4293 Y85.3281 
G01 X72.3532 Y85.1787 
G01 X72.3014 Y85.0193 
G01 X72.2752 Y84.8538 
G01 X72.2752 Y84.6862 
G01 X72.3014 Y84.5207 
G01 X72.3532 Y84.3613 
G01 X72.4293 Y84.2119 
G01 X72.5278 Y84.0763 
G01 X72.6463 Y83.9578 
G01 X72.7819 Y83.8593 
G01 X72.9313 Y83.7832 
G01 X73.0907 Y83.7314 
G01 X73.2562 Y83.7052 
G01 X73.4238 Y83.7052 
G01 X73.5893 Y83.7314 
G01 X73.7487 Y83.7832 
G01 X73.8981 Y83.8593 
G01 X74.0337 Y83.9578 
G01 X74.1522 Y84.0763 
G01 X74.2507 Y84.2119 
G01 X74.3268 Y84.3613 
G01 X74.3786 Y84.5207 
G01 X74.4048 Y84.6862 
G01 X74.4048 Y84.8538 
G01 X74.3786 Y85.0193 
G01 X74.3268 Y85.1787 
G01 X74.2507 Y85.3281 
G01 X74.1522 Y85.4637 
G01 X74.0337 Y85.5822 
G01 X73.9650 Y85.6321 
G01 X73.9650 Y90.9276 
G01 X73.9410 Y91.0483 
G01 X73.8939 Y91.1620 
G01 X73.8255 Y91.2644 
G01 X73.7384 Y91.3515 
G01 X73.6360 Y91.4199 
G01 X73.5223 Y91.4670 
G01 X73.4016 Y91.4910 
G01 X44.0684 Y91.4910 
G01 X43.9477 Y91.4670 
G01 X43.8340 Y91.4199 
G01 X43.7316 Y91.3515 
G01 X43.6445 Y91.2644 
G01 X43.5761 Y91.1620 
G01 X43.5290 Y91.0483 
G01 X43.5050 Y90.9276 
G01 X43.5050 Y81.5850 
G01 X39.9121 Y81.5850 
G01 X39.8622 Y81.6537 
G01 X39.7437 Y81.7722 
G01 X39.6081 Y81.8707 
G01 X39.4587 Y81.9468 
G01 X39.2993 Y81.9986 
G01 X39.1338 Y82.0248 
G01 X38.9662 Y82.0248 
G01 X38.8007 Y81.9986 
G01 X38.6413 Y81.9468 
G01 X38.4919 Y81.8707 
G01 X38.3563 Y81.7722 
G01 X38.2378 Y81.6537 
G01 X38.1393 Y81.5181 
G01 X38.0632 Y81.3687 
G01 X38.0114 Y81.2093 
G01 X37.9852 Y81.0438 
G01 X37.9852 Y80.8762 
G01 X38.0114 Y80.7107 
G01 X38.0632 Y80.5513 
G01 X38.1393 Y80.4019 
G01 X38.2378 Y80.2663 
G00 Z3.0000 
G00 X38.2378 Y85.3463 
G01 Z-0.1778 F200.00 
G01 X38.3563 Y85.2278 F200.00 
G01 X38.4919 Y85.1293 
G01 X38.6413 Y85.0532 
G01 X38.8007 Y85.0014 
G01 X38.9662 Y84.9752 
G01 X39.1338 Y84.9752 
G01 X39.2993 Y85.0014 
G01 X39.4587 Y85.0532 
G01 X39.6081 Y85.1293 
G01 X39.7437 Y85.2278 
G01 X39.8622 Y85.3463 
G01 X39.9607 Y85.4819 
G01 X40.0368 Y85.6313 
G01 X40.0886 Y85.7907 
G01 X40.1148 Y85.9562 
G01 X40.1148 Y86.1238 
G01 X40.0886 Y86.2893 
G01 X40.0368 Y86.4487 
G01 X39.9607 Y86.5981 
G01 X39.8622 Y86.7337 
G01 X39.7437 Y86.8522 
G01 X39.6081 Y86.9507 
G01 X39.4587 Y87.0268 
G01 X39.2993 Y87.0786 
G01 X39.1338 Y87.1048 
G01 X38.9662 Y87.1048 
G01 X38.8007 Y87.0786 
G01 X38.6413 Y87.0268 
G01 X38.4919 Y86.9507 
G01 X38.3563 Y86.8522 
G01 X38.2378 Y86.7337 
G01 X38.1393 Y86.5981 
G01 X38.0632 Y86.4487 
G01 X38.0114 Y86.2893 
G01 X37.9852 Y86.1238 
G01 X37.9852 Y85.9562 
G01 X38.0114 Y85.7907 
G01 X38.0632 Y85.6313 
G01 X38.1393 Y85.4819 
G01 X38.2378 Y85.3463 
G00 Z3.0000 
G00 X32.0550 Y89.6163 
G01 Z-0.1778 F200.00 
G01 X34.2548 Y92.1460 F200.00 
G01 X75.2550 Y92.1460 
G01 X75.2550 Y85.6321 
G01 X75.1863 Y85.5822 
G01 X75.0678 Y85.4637 
G01 X74.9693 Y85.3281 
G01 X74.8932 Y85.1787 
G01 X74.8414 Y85.0193 
G01 X74.8152 Y84.8538 
G01 X74.8152 Y84.6862 
G01 X74.8414 Y84.5207 
G01 X74.8932 Y84.3613 
G01 X74.9693 Y84.2119 
G01 X75.0678 Y84.0763 
G01 X75.1863 Y83.9578 
G01 X75.2550 Y83.9079 
G01 X75.2550 Y81.5850 
G01 X61.2650 Y81.5850 
G01 X61.2650 Y86.1016 
G01 X61.2410 Y86.2223 
G01 X61.1939 Y86.3360 
G01 X61.1255 Y86.4384 
G01 X61.0384 Y86.5255 
G01 X60.9360 Y86.5939 
G01 X60.8223 Y86.6410 
G01 X60.7016 Y86.6650 
G01 X57.6921 Y86.6650 
G01 X57.6422 Y86.7337 
G01 X57.5237 Y86.8522 
G01 X57.3881 Y86.9507 
G01 X57.2387 Y87.0268 
G01 X57.0793 Y87.0786 
G01 X56.9138 Y87.1048 
G01 X56.7462 Y87.1048 
G01 X56.5807 Y87.0786 
G01 X56.4213 Y87.0268 
G01 X56.2719 Y86.9507 
G01 X56.1363 Y86.8522 
G01 X56.0178 Y86.7337 
G01 X55.9193 Y86.5981 
G01 X55.8432 Y86.4487 
G01 X55.7914 Y86.2893 
G01 X55.7652 Y86.1238 
G01 X55.7652 Y85.9562 
G01 X55.7914 Y85.7907 
G01 X55.8432 Y85.6313 
G01 X55.9193 Y85.4819 
G01 X56.0178 Y85.3463 
G01 X56.1363 Y85.2278 
G01 X56.2719 Y85.1293 
G01 X56.4213 Y85.0532 
G01 X56.5807 Y85.0014 
G01 X56.7462 Y84.9752 
G01 X56.9138 Y84.9752 
G01 X57.0793 Y85.0014 
G01 X57.2387 Y85.0532 
G01 X57.3881 Y85.1293 
G01 X57.5237 Y85.2278 
G01 X57.6422 Y85.3463 
G01 X57.6921 Y85.4150 
G01 X60.0150 Y85.4150 
G01 X60.0150 Y81.5850 
G01 X57.6921 Y81.5850 
G01 X57.6422 Y81.6537 
G01 X57.5237 Y81.7722 
G01 X57.3881 Y81.8707 
G01 X57.2387 Y81.9468 
G01 X57.0793 Y81.9986 
G01 X56.9138 Y82.0248 
G01 X56.7462 Y82.0248 
G01 X56.5807 Y81.9986 
G01 X56.4213 Y81.9468 
G01 X56.2719 Y81.8707 
G01 X56.1363 Y81.7722 
G01 X56.0178 Y81.6537 
G01 X55.9193 Y81.5181 
G01 X55.8432 Y81.3687 
G01 X55.7914 Y81.2093 
G01 X55.7652 Y81.0438 
G01 X55.7652 Y80.8762 
G01 X55.7914 Y80.7107 
G01 X55.8432 Y80.5513 
G01 X55.9193 Y80.4019 
G01 X56.0178 Y80.2663 
G01 X56.1363 Y80.1478 
G01 X56.2719 Y80.0493 
G01 X56.4213 Y79.9732 
G01 X56.5807 Y79.9214 
G01 X56.7462 Y79.8952 
G01 X56.9138 Y79.8952 
G01 X57.0793 Y79.9214 
G01 X57.2387 Y79.9732 
G01 X57.3881 Y80.0493 
G01 X57.5237 Y80.1478 
G01 X57.6422 Y80.2663 
G01 X57.6921 Y80.3350 
G01 X75.9416 Y80.3350 
G01 X76.0623 Y80.3590 
G01 X76.1760 Y80.4061 
G01 X76.2784 Y80.4745 
G01 X76.3655 Y80.5616 
G01 X76.4339 Y80.6639 
G01 X76.4810 Y80.7777 
G01 X76.5050 Y80.8984 
G01 X76.5050 Y83.9079 
G01 X76.5737 Y83.9578 
G01 X76.6922 Y84.0763 
G01 X76.7907 Y84.2119 
G01 X76.8668 Y84.3613 
G01 X76.9186 Y84.5207 
G01 X76.9448 Y84.6862 
G01 X76.9448 Y84.8538 
G01 X76.9186 Y85.0193 
G01 X76.8668 Y85.1787 
G01 X76.7907 Y85.3281 
G01 X76.6922 Y85.4637 
G01 X76.5737 Y85.5822 
G01 X76.5050 Y85.6321 
G01 X76.5050 Y92.8326 
G01 X76.4810 Y92.9533 
G01 X76.4339 Y93.0670 
G01 X76.3655 Y93.1694 
G01 X76.2784 Y93.2565 
G01 X76.1760 Y93.3249 
G01 X76.0623 Y93.3720 
G01 X75.9416 Y93.3960 
G01 X34.0096 Y93.3960 
G01 X33.9879 Y93.3988 
G01 X33.9482 Y93.3960 
G01 X33.9084 Y93.3960 
G01 X33.8869 Y93.3917 
G01 X33.8651 Y93.3902 
G01 X33.8267 Y93.3797 
G01 X33.7877 Y93.3720 
G01 X33.7675 Y93.3636 
G01 X33.7463 Y93.3578 
G01 X33.7107 Y93.3401 
G01 X33.6739 Y93.3249 
G01 X33.6557 Y93.3127 
G01 X33.6361 Y93.3029 
G01 X33.6046 Y93.2786 
G01 X33.5716 Y93.2565 
G01 X33.5561 Y93.2410 
G01 X33.5388 Y93.2276 
G01 X33.5127 Y93.1975 
G01 X33.4845 Y93.1694 
G01 X33.4724 Y93.1512 
G01 X30.9726 Y90.2765 
G01 X30.9445 Y90.2484 
G01 X30.9324 Y90.2302 
G01 X30.9180 Y90.2137 
G01 X30.8982 Y90.1791 
G01 X30.8761 Y90.1460 
G01 X30.8677 Y90.1258 
G01 X30.8569 Y90.1068 
G01 X30.8443 Y90.0691 
G01 X30.8290 Y90.0323 
G01 X30.8247 Y90.0108 
G01 X30.8178 Y89.9900 
G01 X30.8128 Y89.9506 
G01 X30.8050 Y89.9116 
G01 X30.8050 Y89.8896 
G01 X30.8022 Y89.8679 
G01 X30.8050 Y89.8282 
G01 X30.8050 Y70.3921 
G01 X30.7363 Y70.3422 
G01 X30.6178 Y70.2237 
G01 X30.5193 Y70.0881 
G01 X30.4432 Y69.9387 
G01 X30.3914 Y69.7793 
G01 X30.3652 Y69.6138 
G01 X30.3652 Y69.4462 
G01 X30.3914 Y69.2807 
G01 X30.4432 Y69.1213 
G01 X30.5193 Y68.9719 
G01 X30.6178 Y68.8363 
G01 X30.7363 Y68.7178 
G01 X30.8719 Y68.6193 
G01 X31.0213 Y68.5432 
G01 X31.1807 Y68.4914 
G01 X31.3462 Y68.4652 
G01 X31.5138 Y68.4652 
G01 X31.6793 Y68.4914 
G01 X31.8387 Y68.5432 
G01 X31.9881 Y68.6193 
G01 X32.1237 Y68.7178 
G01 X32.2422 Y68.8363 
G01 X32.3407 Y68.9719 
G01 X32.4168 Y69.1213 
G01 X32.4686 Y69.2807 
G01 X32.4948 Y69.4462 
G01 X32.4948 Y69.6138 
G01 X32.4686 Y69.7793 
G01 X32.4168 Y69.9387 
G01 X32.3407 Y70.0881 
G01 X32.2422 Y70.2237 
G01 X32.1237 Y70.3422 
G01 X32.0550 Y70.3921 
G01 X32.0550 Y89.6163 
G00 Z3.0000 
G00 X30.9807 Y95.2608 
G01 Z-0.1778 F200.00 
G01 X31.0992 Y95.3793 F200.00 
G01 X31.1977 Y95.5149 
G01 X31.2738 Y95.6643 
G01 X31.3256 Y95.8237 
G01 X31.3518 Y95.9892 
G01 X31.3518 Y96.1568 
G01 X31.3256 Y96.3223 
G01 X31.2738 Y96.4817 
G01 X31.1977 Y96.6311 
G01 X31.0992 Y96.7667 
G01 X31.0208 Y96.8450 
G01 X38.1879 Y96.8450 
G01 X38.2378 Y96.7763 
G01 X38.3563 Y96.6578 
G01 X38.4919 Y96.5593 
G01 X38.6413 Y96.4832 
G01 X38.8007 Y96.4314 
G01 X38.9662 Y96.4052 
G01 X39.1338 Y96.4052 
G01 X39.2993 Y96.4314 
G01 X39.4587 Y96.4832 
G01 X39.6081 Y96.5593 
G01 X39.7437 Y96.6578 
G01 X39.8622 Y96.7763 
G01 X39.9103 Y96.8425 
G01 X82.9006 Y96.7198 
G01 X82.9006 Y74.2207 
G01 X82.8063 Y74.1522 
G01 X82.6878 Y74.0337 
G01 X82.5893 Y73.8981 
G01 X82.5132 Y73.7487 
G01 X82.4614 Y73.5893 
G01 X82.4352 Y73.4238 
G01 X82.4352 Y73.2562 
G01 X82.4614 Y73.0907 
G01 X82.5132 Y72.9313 
G01 X82.5893 Y72.7819 
G01 X82.6878 Y72.6463 
G01 X82.8063 Y72.5278 
G01 X82.8750 Y72.4779 
G01 X82.8750 Y69.1221 
G01 X82.8063 Y69.0722 
G01 X82.6878 Y68.9537 
G01 X82.5893 Y68.8181 
G01 X82.5132 Y68.6687 
G01 X82.4614 Y68.5093 
G01 X82.4352 Y68.3438 
G01 X82.4352 Y68.1762 
G01 X82.4614 Y68.0107 
G01 X82.5132 Y67.8513 
G01 X82.5893 Y67.7019 
G01 X82.6878 Y67.5663 
G01 X82.8063 Y67.4478 
G01 X82.8750 Y67.3979 
G01 X82.8750 Y57.6921 
G01 X82.8063 Y57.6422 
G01 X82.6878 Y57.5237 
G01 X82.5893 Y57.3881 
G01 X82.5132 Y57.2387 
G01 X82.4614 Y57.0793 
G01 X82.4352 Y56.9138 
G01 X82.4352 Y56.7462 
G01 X82.4614 Y56.5807 
G01 X82.5132 Y56.4213 
G01 X82.5893 Y56.2719 
G01 X82.6878 Y56.1363 
G01 X82.8063 Y56.0178 
G01 X82.8750 Y55.9679 
G01 X82.8750 Y51.9771 
G01 X82.8063 Y51.9272 
G01 X82.6878 Y51.8087 
G01 X82.5893 Y51.6731 
G01 X82.5132 Y51.5237 
G01 X82.4614 Y51.3643 
G01 X82.4352 Y51.1988 
G01 X82.4352 Y51.0312 
G01 X82.4614 Y50.8657 
G01 X82.5132 Y50.7063 
G01 X82.5893 Y50.5569 
G01 X82.6878 Y50.4213 
G01 X82.8063 Y50.3028 
G01 X82.8750 Y50.2529 
G01 X82.8750 Y47.5321 
G01 X82.8063 Y47.4822 
G01 X82.6878 Y47.3637 
G01 X82.5893 Y47.2281 
G01 X82.5132 Y47.0787 
G01 X82.4614 Y46.9193 
G01 X82.4352 Y46.7538 
G01 X82.4352 Y46.5862 
G01 X82.4614 Y46.4207 
G01 X82.5132 Y46.2613 
G01 X82.5893 Y46.1119 
G01 X82.6878 Y45.9763 
G01 X82.8063 Y45.8578 
G01 X82.9419 Y45.7593 
G01 X83.0913 Y45.6832 
G01 X83.2507 Y45.6314 
G01 X83.4162 Y45.6052 
G01 X83.5838 Y45.6052 
G01 X83.7493 Y45.6314 
G01 X83.9087 Y45.6832 
G01 X84.0581 Y45.7593 
G01 X84.1937 Y45.8578 
G01 X84.3122 Y45.9763 
G01 X84.3621 Y46.0450 
G01 X86.2026 Y46.0450 
G01 X86.2026 Y42.2150 
G01 X84.3621 Y42.2150 
G01 X84.3122 Y42.2837 
G01 X84.1937 Y42.4022 
G01 X84.0581 Y42.5007 
G01 X83.9087 Y42.5768 
G01 X83.7493 Y42.6286 
G01 X83.5838 Y42.6548 
G01 X83.4162 Y42.6548 
G01 X83.2507 Y42.6286 
G01 X83.0913 Y42.5768 
G01 X82.9419 Y42.5007 
G01 X82.8063 Y42.4022 
G01 X82.6878 Y42.2837 
G01 X82.5893 Y42.1481 
G01 X82.5132 Y41.9987 
G01 X82.4614 Y41.8393 
G01 X82.4352 Y41.6738 
G01 X82.4352 Y41.5062 
G01 X82.4614 Y41.3407 
G01 X82.5132 Y41.1813 
G01 X82.5893 Y41.0319 
G01 X82.6878 Y40.8963 
G01 X82.8063 Y40.7778 
G01 X82.9419 Y40.6793 
G01 X83.0913 Y40.6032 
G01 X83.2507 Y40.5514 
G01 X83.4162 Y40.5252 
G01 X83.5838 Y40.5252 
G01 X83.7493 Y40.5514 
G01 X83.9087 Y40.6032 
G01 X84.0581 Y40.6793 
G01 X84.1937 Y40.7778 
G01 X84.3122 Y40.8963 
G01 X84.3621 Y40.9650 
G01 X86.2026 Y40.9650 
G01 X86.2026 Y29.5150 
G01 X84.3621 Y29.5150 
G01 X84.3122 Y29.5837 
G01 X84.1937 Y29.7022 
G01 X84.0581 Y29.8007 
G01 X83.9087 Y29.8768 
G01 X83.7493 Y29.9286 
G01 X83.5838 Y29.9548 
G01 X83.4162 Y29.9548 
G01 X83.2507 Y29.9286 
G01 X83.0913 Y29.8768 
G01 X82.9419 Y29.8007 
G01 X82.8063 Y29.7022 
G01 X82.6878 Y29.5837 
G01 X82.5893 Y29.4481 
G01 X82.5132 Y29.2987 
G01 X82.4614 Y29.1393 
G01 X82.4352 Y28.9738 
G01 X82.4352 Y28.8062 
G01 X82.4614 Y28.6407 
G01 X82.5132 Y28.4813 
G01 X82.5893 Y28.3319 
G01 X82.6878 Y28.1963 
G01 X82.8063 Y28.0778 
G01 X82.9419 Y27.9793 
G01 X83.0913 Y27.9032 
G01 X83.2507 Y27.8514 
G01 X83.4162 Y27.8252 
G01 X83.5838 Y27.8252 
G01 X83.7493 Y27.8514 
G01 X83.9087 Y27.9032 
G01 X84.0581 Y27.9793 
G01 X84.1937 Y28.0778 
G01 X84.3122 Y28.1963 
G01 X84.3621 Y28.2650 
G01 X86.8892 Y28.2650 
G01 X87.0099 Y28.2890 
G01 X87.1236 Y28.3361 
G01 X87.2260 Y28.4045 
G01 X87.3131 Y28.4916 
G01 X87.3815 Y28.5939 
G01 X87.4286 Y28.7077 
G01 X87.4526 Y28.8284 
G01 X87.4526 Y46.7316 
G01 X87.4286 Y46.8523 
G01 X87.3815 Y46.9660 
G01 X87.3131 Y47.0684 
G01 X87.2260 Y47.1555 
G01 X87.1236 Y47.2239 
G01 X87.0099 Y47.2710 
G01 X86.8892 Y47.2950 
G01 X84.3621 Y47.2950 
G01 X84.3122 Y47.3637 
G01 X84.1937 Y47.4822 
G01 X84.1250 Y47.5321 
G01 X84.1250 Y50.2529 
G01 X84.1937 Y50.3028 
G01 X84.3122 Y50.4213 
G01 X84.4107 Y50.5569 
G01 X84.4868 Y50.7063 
G01 X84.5386 Y50.8657 
G01 X84.5648 Y51.0312 
G01 X84.5648 Y51.1988 
G01 X84.5386 Y51.3643 
G01 X84.4868 Y51.5237 
G01 X84.4107 Y51.6731 
G01 X84.3122 Y51.8087 
G01 X84.1937 Y51.9272 
G01 X84.1250 Y51.9771 
G01 X84.1250 Y55.9679 
G01 X84.1937 Y56.0178 
G01 X84.3122 Y56.1363 
G01 X84.4107 Y56.2719 
G01 X84.4868 Y56.4213 
G01 X84.5386 Y56.5807 
G01 X84.5648 Y56.7462 
G01 X84.5648 Y56.9138 
G01 X84.5386 Y57.0793 
G01 X84.4868 Y57.2387 
G01 X84.4107 Y57.3881 
G01 X84.3122 Y57.5237 
G01 X84.1937 Y57.6422 
G01 X84.1250 Y57.6921 
G01 X84.1250 Y67.3979 
G01 X84.1937 Y67.4478 
G01 X84.3122 Y67.5663 
G01 X84.4107 Y67.7019 
G01 X84.4868 Y67.8513 
G01 X84.5386 Y68.0107 
G01 X84.5648 Y68.1762 
G01 X84.5648 Y68.3438 
G01 X84.5386 Y68.5093 
G01 X84.4868 Y68.6687 
G01 X84.4107 Y68.8181 
G01 X84.3122 Y68.9537 
G01 X84.1937 Y69.0722 
G01 X84.1250 Y69.1221 
G01 X84.1250 Y72.4779 
G01 X84.1937 Y72.5278 
G01 X84.3122 Y72.6463 
G01 X84.4107 Y72.7819 
G01 X84.4868 Y72.9313 
G01 X84.5386 Y73.0907 
G01 X84.5648 Y73.2562 
G01 X84.5648 Y73.4238 
G01 X84.5386 Y73.5893 
G01 X84.4868 Y73.7487 
G01 X84.4107 Y73.8981 
G01 X84.3122 Y74.0337 
G01 X84.1937 Y74.1522 
G01 X84.1506 Y74.1835 
G01 X84.1506 Y97.3423 
G01 X84.1508 Y97.4028 
G01 X84.1387 Y97.4642 
G01 X84.1271 Y97.5236 
G01 X84.1034 Y97.5812 
G01 X84.0803 Y97.6375 
G01 X84.0461 Y97.6890 
G01 X84.0122 Y97.7400 
G01 X83.9685 Y97.7840 
G01 X83.9254 Y97.8273 
G01 X83.8740 Y97.8619 
G01 X83.8232 Y97.8960 
G01 X83.7657 Y97.9200 
G01 X83.7096 Y97.9435 
G01 X83.6485 Y97.9558 
G01 X83.5889 Y97.9678 
G01 X83.5265 Y97.9680 
G01 X39.9139 Y98.0925 
G01 X39.8622 Y98.1637 
G01 X39.7437 Y98.2822 
G01 X39.6081 Y98.3807 
G01 X39.4587 Y98.4568 
G01 X39.2993 Y98.5086 
G01 X39.1338 Y98.5348 
G01 X38.9662 Y98.5348 
G01 X38.8007 Y98.5086 
G01 X38.6413 Y98.4568 
G01 X38.4919 Y98.3807 
G01 X38.3563 Y98.2822 
G01 X38.2378 Y98.1637 
G01 X38.1879 Y98.0950 
G01 X30.0984 Y98.0950 
G01 X29.9777 Y98.0710 
G01 X29.8640 Y98.0239 
G01 X29.7616 Y97.9555 
G01 X29.6745 Y97.8684 
G01 X29.6061 Y97.7660 
G01 X29.5590 Y97.6523 
G01 X29.5350 Y97.5316 
G01 X29.5350 Y96.8269 
G01 X29.4748 Y96.7667 
G01 X29.3763 Y96.6311 
G01 X29.3002 Y96.4817 
G01 X29.2484 Y96.3223 
G01 X29.2222 Y96.1568 
G01 X29.2222 Y95.9892 
G01 X29.2484 Y95.8237 
G01 X29.3002 Y95.6643 
G01 X29.3763 Y95.5149 
G01 X29.4748 Y95.3793 
G01 X29.5933 Y95.2608 
G01 X29.7289 Y95.1623 
G01 X29.8783 Y95.0862 
G01 X30.0377 Y95.0344 
G01 X30.2032 Y95.0082 
G01 X30.3708 Y95.0082 
G01 X30.5363 Y95.0344 
G01 X30.6957 Y95.0862 
G01 X30.8451 Y95.1623 
G01 X30.9807 Y95.2608 
G00 Z3.0000 
G00 X26.2916 Y97.0688 
G01 Z-0.1778 F200.00 
G01 X26.4972 Y97.2744 F200.00 
G01 X26.6742 Y97.5051 
G01 X26.8195 Y97.7569 
G01 X26.9308 Y98.0255 
G01 X27.0060 Y98.3064 
G01 X27.0440 Y98.5946 
G01 X27.0440 Y98.8854 
G01 X27.0060 Y99.1736 
G01 X26.9308 Y99.4545 
G01 X26.8195 Y99.7231 
G01 X26.6742 Y99.9749 
G01 X26.4972 Y100.2056 
G01 X26.2916 Y100.4112 
G01 X26.0609 Y100.5882 
G01 X25.8091 Y100.7335 
G01 X25.5405 Y100.8448 
G01 X25.2596 Y100.9200 
G01 X24.9714 Y100.9580 
G01 X24.6806 Y100.9580 
G01 X24.3924 Y100.9200 
G01 X24.1115 Y100.8448 
G01 X23.8429 Y100.7335 
G01 X23.5911 Y100.5882 
G01 X23.3604 Y100.4112 
G01 X23.1548 Y100.2056 
G01 X22.9778 Y99.9749 
G01 X22.8325 Y99.7231 
G01 X22.7212 Y99.4545 
G01 X22.6459 Y99.1736 
G01 X22.6080 Y98.8854 
G01 X22.6080 Y98.5946 
G01 X22.6459 Y98.3064 
G01 X22.7212 Y98.0255 
G01 X22.8325 Y97.7569 
G01 X22.9778 Y97.5051 
G01 X23.1548 Y97.2744 
G01 X23.3604 Y97.0688 
G01 X23.5911 Y96.8918 
G01 X23.8429 Y96.7465 
G01 X24.1115 Y96.6352 
G01 X24.3924 Y96.5600 
G01 X24.6806 Y96.5220 
G01 X24.9714 Y96.5220 
G01 X25.2596 Y96.5600 
G01 X25.5405 Y96.6352 
G01 X25.8091 Y96.7465 
G01 X26.0609 Y96.8918 
G01 X26.2916 Y97.0688 
G00 Z3.0000 
G00 X56.1363 Y84.3122 
G01 Z-0.1778 F200.00 
G01 X56.0178 Y84.1937 F200.00 
G01 X55.9193 Y84.0581 
G01 X55.8432 Y83.9087 
G01 X55.7914 Y83.7493 
G01 X55.7652 Y83.5838 
G01 X55.7652 Y83.4162 
G01 X55.7914 Y83.2507 
G01 X55.8432 Y83.0913 
G01 X55.9193 Y82.9419 
G01 X56.0178 Y82.8063 
G01 X56.1363 Y82.6878 
G01 X56.2719 Y82.5893 
G01 X56.4213 Y82.5132 
G01 X56.5807 Y82.4614 
G01 X56.7462 Y82.4352 
G01 X56.9138 Y82.4352 
G01 X57.0793 Y82.4614 
G01 X57.2387 Y82.5132 
G01 X57.3881 Y82.5893 
G01 X57.5237 Y82.6878 
G01 X57.6422 Y82.8063 
G01 X57.7407 Y82.9419 
G01 X57.8168 Y83.0913 
G01 X57.8686 Y83.2507 
G01 X57.8948 Y83.4162 
G01 X57.8948 Y83.5838 
G01 X57.8686 Y83.7493 
G01 X57.8168 Y83.9087 
G01 X57.7407 Y84.0581 
G01 X57.6422 Y84.1937 
G01 X57.5237 Y84.3122 
G01 X57.3881 Y84.4107 
G01 X57.2387 Y84.4868 
G01 X57.0793 Y84.5386 
G01 X56.9138 Y84.5648 
G01 X56.7462 Y84.5648 
G01 X56.5807 Y84.5386 
G01 X56.4213 Y84.4868 
G01 X56.2719 Y84.4107 
G01 X56.1363 Y84.3122 
G00 Z3.0000 
G00 X56.1363 Y76.6922 
G01 Z-0.1778 F200.00 
G01 X56.0178 Y76.5737 F200.00 
G01 X55.9193 Y76.4381 
G01 X55.8432 Y76.2887 
G01 X55.7914 Y76.1293 
G01 X55.7652 Y75.9638 
G01 X55.7652 Y75.7962 
G01 X55.7914 Y75.6307 
G01 X55.8432 Y75.4713 
G01 X55.9193 Y75.3219 
G01 X56.0178 Y75.1863 
G01 X56.1363 Y75.0678 
G01 X56.2719 Y74.9693 
G01 X56.4213 Y74.8932 
G01 X56.5807 Y74.8414 
G01 X56.7462 Y74.8152 
G01 X56.9138 Y74.8152 
G01 X57.0793 Y74.8414 
G01 X57.2387 Y74.8932 
G01 X57.3881 Y74.9693 
G01 X57.5237 Y75.0678 
G01 X57.6422 Y75.1863 
G01 X57.6921 Y75.2550 
G01 X60.2474 Y75.2550 
G01 X60.3200 Y75.2065 
G01 X60.4583 Y75.1492 
G01 X60.6051 Y75.1200 
G01 X60.7549 Y75.1200 
G01 X60.9017 Y75.1492 
G01 X61.0400 Y75.2065 
G01 X61.1645 Y75.2897 
G01 X61.2703 Y75.3955 
G01 X61.3535 Y75.5200 
G01 X61.4108 Y75.6583 
G01 X61.4400 Y75.8051 
G01 X61.4400 Y75.9549 
G01 X61.4108 Y76.1017 
G01 X61.3535 Y76.2400 
G01 X61.2703 Y76.3645 
G01 X61.1645 Y76.4703 
G01 X61.0400 Y76.5535 
G01 X60.9017 Y76.6108 
G01 X60.7549 Y76.6400 
G01 X60.6051 Y76.6400 
G01 X60.4583 Y76.6108 
G01 X60.3200 Y76.5535 
G01 X60.2474 Y76.5050 
G01 X57.6921 Y76.5050 
G01 X57.6422 Y76.5737 
G01 X57.5237 Y76.6922 
G01 X57.3881 Y76.7907 
G01 X57.2387 Y76.8668 
G01 X57.0793 Y76.9186 
G01 X56.9138 Y76.9448 
G01 X56.7462 Y76.9448 
G01 X56.5807 Y76.9186 
G01 X56.4213 Y76.8668 
G01 X56.2719 Y76.7907 
G01 X56.1363 Y76.6922 
G00 Z3.0000 
G00 X56.1363 Y74.1522 
G01 Z-0.1778 F200.00 
G01 X56.0178 Y74.0337 F200.00 
G01 X55.9193 Y73.8981 
G01 X55.8432 Y73.7487 
G01 X55.7914 Y73.5893 
G01 X55.7652 Y73.4238 
G01 X55.7652 Y73.2562 
G01 X55.7914 Y73.0907 
G01 X55.8432 Y72.9313 
G01 X55.9193 Y72.7819 
G01 X56.0178 Y72.6463 
G01 X56.1363 Y72.5278 
G01 X56.2719 Y72.4293 
G01 X56.4213 Y72.3532 
G01 X56.5807 Y72.3014 
G01 X56.7462 Y72.2752 
G01 X56.9138 Y72.2752 
G01 X57.0793 Y72.3014 
G01 X57.2387 Y72.3532 
G01 X57.3881 Y72.4293 
G01 X57.5237 Y72.5278 
G01 X57.6422 Y72.6463 
G01 X57.6921 Y72.7150 
G01 X60.0550 Y72.7150 
G01 X60.0550 Y71.2326 
G01 X60.0065 Y71.1600 
G01 X59.9492 Y71.0217 
G01 X59.9200 Y70.8749 
G01 X59.9200 Y70.7251 
G01 X59.9492 Y70.5783 
G01 X60.0065 Y70.4400 
G01 X60.0897 Y70.3155 
G01 X60.1955 Y70.2097 
G01 X60.3200 Y70.1265 
G01 X60.4583 Y70.0692 
G01 X60.6051 Y70.0400 
G01 X60.7549 Y70.0400 
G01 X60.9017 Y70.0692 
G01 X61.0400 Y70.1265 
G01 X61.1645 Y70.2097 
G01 X61.2703 Y70.3155 
G01 X61.3535 Y70.4400 
G01 X61.4108 Y70.5783 
G01 X61.4400 Y70.7251 
G01 X61.4400 Y70.8749 
G01 X61.4108 Y71.0217 
G01 X61.3535 Y71.1600 
G01 X61.3050 Y71.2326 
G01 X61.3050 Y73.3616 
G01 X61.2810 Y73.4823 
G01 X61.2339 Y73.5960 
G01 X61.1655 Y73.6984 
G01 X61.0784 Y73.7855 
G01 X61.0384 Y73.8255 
G01 X60.9360 Y73.8939 
G01 X60.8223 Y73.9410 
G01 X60.7016 Y73.9650 
G01 X57.6921 Y73.9650 
G01 X57.6422 Y74.0337 
G01 X57.5237 Y74.1522 
G01 X57.3881 Y74.2507 
G01 X57.2387 Y74.3268 
G01 X57.0793 Y74.3786 
G01 X56.9138 Y74.4048 
G01 X56.7462 Y74.4048 
G01 X56.5807 Y74.3786 
G01 X56.4213 Y74.3268 
G01 X56.2719 Y74.2507 
G01 X56.1363 Y74.1522 
G00 Z3.0000 
G00 X56.1363 Y71.6122 
G01 Z-0.1778 F200.00 
G01 X56.0178 Y71.4937 F200.00 
G01 X55.9193 Y71.3581 
G01 X55.8432 Y71.2087 
G01 X55.7914 Y71.0493 
G01 X55.7652 Y70.8838 
G01 X55.7652 Y70.7162 
G01 X55.7914 Y70.5507 
G01 X55.8432 Y70.3913 
G01 X55.9193 Y70.2419 
G01 X56.0178 Y70.1063 
G01 X56.1363 Y69.9878 
G01 X56.2719 Y69.8893 
G01 X56.4213 Y69.8132 
G01 X56.5807 Y69.7614 
G01 X56.7462 Y69.7352 
G01 X56.9138 Y69.7352 
G01 X57.0793 Y69.7614 
G01 X57.2387 Y69.8132 
G01 X57.3881 Y69.8893 
G01 X57.5237 Y69.9878 
G01 X57.6422 Y70.1063 
G01 X57.7407 Y70.2419 
G01 X57.8168 Y70.3913 
G01 X57.8686 Y70.5507 
G01 X57.8948 Y70.7162 
G01 X57.8948 Y70.8838 
G01 X57.8686 Y71.0493 
G01 X57.8168 Y71.2087 
G01 X57.7407 Y71.3581 
G01 X57.6422 Y71.4937 
G01 X57.5237 Y71.6122 
G01 X57.3881 Y71.7107 
G01 X57.2387 Y71.7868 
G01 X57.0793 Y71.8386 
G01 X56.9138 Y71.8648 
G01 X56.7462 Y71.8648 
G01 X56.5807 Y71.8386 
G01 X56.4213 Y71.7868 
G01 X56.2719 Y71.7107 
G01 X56.1363 Y71.6122 
G00 Z3.0000 
G00 X56.1363 Y69.0722 
G01 Z-0.1778 F200.00 
G01 X56.0178 Y68.9537 F200.00 
G01 X55.9679 Y68.8850 
G01 X46.1004 Y68.8850 
G01 X45.9797 Y68.8610 
G01 X45.8659 Y68.8139 
G01 X45.7636 Y68.7455 
G01 X45.6765 Y68.6584 
G01 X45.6081 Y68.5560 
G01 X45.5610 Y68.4423 
G01 X45.5370 Y68.3216 
G01 X45.5370 Y37.1350 
G01 X40.2584 Y37.1350 
G01 X40.1377 Y37.1110 
G01 X40.0239 Y37.0639 
G01 X39.9216 Y36.9955 
G01 X39.7934 Y36.8673 
G01 X39.7518 Y36.8265 
G01 X39.7499 Y36.8238 
G01 X39.7152 Y36.7730 
G01 X39.6823 Y36.7249 
G01 X39.6810 Y36.7218 
G01 X39.6791 Y36.7190 
G01 X39.6568 Y36.6652 
G01 X39.6340 Y36.6117 
G01 X39.6333 Y36.6084 
G01 X39.6320 Y36.6053 
G01 X39.6206 Y36.5481 
G01 X39.6087 Y36.4912 
G01 X39.6087 Y36.4878 
G01 X39.6080 Y36.4846 
G01 X39.6080 Y36.4262 
G01 X39.5726 Y33.0995 
G01 X39.5195 Y33.0200 
G01 X39.4622 Y32.8817 
G01 X39.4330 Y32.7349 
G01 X39.4330 Y32.5851 
G01 X39.4622 Y32.4383 
G01 X39.5195 Y32.3000 
G01 X39.6027 Y32.1755 
G01 X39.7085 Y32.0697 
G01 X39.8330 Y31.9865 
G01 X39.9713 Y31.9292 
G01 X40.1181 Y31.9000 
G01 X40.2679 Y31.9000 
G01 X40.4147 Y31.9292 
G01 X40.5530 Y31.9865 
G01 X40.6775 Y32.0697 
G01 X40.7833 Y32.1755 
G01 X40.8665 Y32.3000 
G01 X40.9238 Y32.4383 
G01 X40.9530 Y32.5851 
G01 X40.9530 Y32.7349 
G01 X40.9238 Y32.8817 
G01 X40.8665 Y33.0200 
G01 X40.8226 Y33.0858 
G01 X40.8523 Y35.8850 
G01 X46.2236 Y35.8850 
G01 X46.3443 Y35.9090 
G01 X46.4580 Y35.9561 
G01 X46.5604 Y36.0245 
G01 X46.6475 Y36.1116 
G01 X46.7159 Y36.2139 
G01 X46.7630 Y36.3277 
G01 X46.7870 Y36.4484 
G01 X46.7870 Y67.6350 
G01 X55.9679 Y67.6350 
G01 X56.0178 Y67.5663 
G01 X56.1363 Y67.4478 
G01 X56.2719 Y67.3493 
G01 X56.4213 Y67.2732 
G01 X56.5807 Y67.2214 
G01 X56.7462 Y67.1952 
G01 X56.9138 Y67.1952 
G01 X57.0793 Y67.2214 
G01 X57.2387 Y67.2732 
G01 X57.3881 Y67.3493 
G01 X57.5237 Y67.4478 
G01 X57.6422 Y67.5663 
G01 X57.7407 Y67.7019 
G01 X57.8168 Y67.8513 
G01 X57.8686 Y68.0107 
G01 X57.8948 Y68.1762 
G01 X57.8948 Y68.3438 
G01 X57.8686 Y68.5093 
G01 X57.8168 Y68.6687 
G01 X57.7407 Y68.8181 
G01 X57.6422 Y68.9537 
G01 X57.5237 Y69.0722 
G01 X57.3881 Y69.1707 
G01 X57.2387 Y69.2468 
G01 X57.0793 Y69.2986 
G01 X56.9138 Y69.3248 
G01 X56.7462 Y69.3248 
G01 X56.5807 Y69.2986 
G01 X56.4213 Y69.2468 
G01 X56.2719 Y69.1707 
G01 X56.1363 Y69.0722 
G00 Z3.0000 
G00 X56.1363 Y66.5322 
G01 Z-0.1778 F200.00 
G01 X56.0178 Y66.4137 F200.00 
G01 X55.9679 Y66.3450 
G01 X49.1484 Y66.3450 
G01 X49.0277 Y66.3210 
G01 X48.9139 Y66.2739 
G01 X48.8116 Y66.2055 
G01 X48.7245 Y66.1184 
G01 X48.6561 Y66.0160 
G01 X48.6090 Y65.9023 
G01 X48.5850 Y65.7816 
G01 X48.5850 Y33.9084 
G01 X48.6090 Y33.7877 
G01 X48.6561 Y33.6739 
G01 X48.7245 Y33.5716 
G01 X48.8116 Y33.4845 
G01 X48.9139 Y33.4161 
G01 X49.0277 Y33.3690 
G01 X49.1484 Y33.3450 
G01 X58.7450 Y33.3450 
G01 X58.7450 Y28.8284 
G01 X58.7690 Y28.7077 
G01 X58.8161 Y28.5939 
G01 X58.8845 Y28.4916 
G01 X58.9716 Y28.4045 
G01 X59.0740 Y28.3361 
G01 X59.1877 Y28.2890 
G01 X59.3084 Y28.2650 
G01 X59.4316 Y28.2650 
G01 X59.5523 Y28.2890 
G01 X59.5909 Y28.3050 
G01 X61.9854 Y28.3050 
G01 X62.0580 Y28.2565 
G01 X62.1963 Y28.1992 
G01 X62.3431 Y28.1700 
G01 X62.4929 Y28.1700 
G01 X62.6397 Y28.1992 
G01 X62.7780 Y28.2565 
G01 X62.8506 Y28.3050 
G01 X67.0916 Y28.3050 
G01 X67.2123 Y28.3290 
G01 X67.3260 Y28.3761 
G01 X67.4284 Y28.4445 
G01 X69.7889 Y30.8050 
G01 X75.9416 Y30.8050 
G01 X76.0623 Y30.8290 
G01 X76.1760 Y30.8761 
G01 X76.2784 Y30.9445 
G01 X78.0564 Y32.7225 
G01 X78.1435 Y32.8096 
G01 X78.2119 Y32.9119 
G01 X78.2590 Y33.0257 
G01 X78.2830 Y33.1464 
G01 X78.2830 Y34.8076 
G01 X78.4062 Y34.9308 
G01 X78.5116 Y35.0886 
G01 X78.5842 Y35.2638 
G01 X78.6212 Y35.4499 
G01 X78.6212 Y37.3161 
G01 X78.5842 Y37.5022 
G01 X78.5116 Y37.6774 
G01 X78.4062 Y37.8352 
G01 X78.2720 Y37.9694 
G01 X78.1142 Y38.0748 
G01 X77.9390 Y38.1474 
G01 X77.7529 Y38.1844 
G01 X77.5631 Y38.1844 
G01 X77.3770 Y38.1474 
G01 X77.2018 Y38.0748 
G01 X77.0440 Y37.9694 
G01 X76.9098 Y37.8352 
G01 X76.8044 Y37.6774 
G01 X76.7318 Y37.5022 
G01 X76.6948 Y37.3161 
G01 X76.6948 Y35.4499 
G01 X76.7318 Y35.2638 
G01 X76.8044 Y35.0886 
G01 X76.9098 Y34.9308 
G01 X77.0330 Y34.8076 
G01 X77.0330 Y33.4669 
G01 X75.6211 Y32.0550 
G01 X69.4684 Y32.0550 
G01 X69.3477 Y32.0310 
G01 X69.2339 Y31.9839 
G01 X69.1316 Y31.9155 
G01 X69.0445 Y31.8284 
G01 X66.7711 Y29.5550 
G01 X62.8506 Y29.5550 
G01 X62.7780 Y29.6035 
G01 X62.6397 Y29.6608 
G01 X62.4929 Y29.6900 
G01 X62.3431 Y29.6900 
G01 X62.1963 Y29.6608 
G01 X62.0580 Y29.6035 
G01 X61.9854 Y29.5550 
G01 X59.9950 Y29.5550 
G01 X59.9950 Y34.0316 
G01 X59.9710 Y34.1523 
G01 X59.9239 Y34.2660 
G01 X59.8555 Y34.3684 
G01 X59.7684 Y34.4555 
G01 X59.6660 Y34.5239 
G01 X59.5523 Y34.5710 
G01 X59.4316 Y34.5950 
G01 X49.8350 Y34.5950 
G01 X49.8350 Y65.0950 
G01 X55.9679 Y65.0950 
G01 X56.0178 Y65.0263 
G01 X56.1363 Y64.9078 
G01 X56.2719 Y64.8093 
G01 X56.4213 Y64.7332 
G01 X56.5807 Y64.6814 
G01 X56.7462 Y64.6552 
G01 X56.9138 Y64.6552 
G01 X57.0793 Y64.6814 
G01 X57.2387 Y64.7332 
G01 X57.3881 Y64.8093 
G01 X57.5237 Y64.9078 
G01 X57.6422 Y65.0263 
G01 X57.7407 Y65.1619 
G01 X57.8168 Y65.3113 
G01 X57.8686 Y65.4707 
G01 X57.8948 Y65.6362 
G01 X57.8948 Y65.8038 
G01 X57.8686 Y65.9693 
G01 X57.8168 Y66.1287 
G01 X57.7407 Y66.2781 
G01 X57.6422 Y66.4137 
G01 X57.5237 Y66.5322 
G01 X57.3881 Y66.6307 
G01 X57.2387 Y66.7068 
G01 X57.0793 Y66.7586 
G01 X56.9138 Y66.7848 
G01 X56.7462 Y66.7848 
G01 X56.5807 Y66.7586 
G01 X56.4213 Y66.7068 
G01 X56.2719 Y66.6307 
G01 X56.1363 Y66.5322 
G00 Z3.0000 
G00 X56.1363 Y63.9922 
G01 Z-0.1778 F200.00 
G01 X56.0178 Y63.8737 F200.00 
G01 X55.9679 Y63.8050 
G01 X52.4504 Y63.8050 
G01 X52.3297 Y63.7810 
G01 X52.2159 Y63.7339 
G01 X52.1136 Y63.6655 
G01 X52.0265 Y63.5784 
G01 X51.9581 Y63.4760 
G01 X51.9110 Y63.3623 
G01 X51.8870 Y63.2416 
G01 X51.8870 Y38.3534 
G01 X51.9110 Y38.2327 
G01 X51.9581 Y38.1189 
G01 X52.0265 Y38.0166 
G01 X52.1136 Y37.9295 
G01 X52.2159 Y37.8611 
G01 X52.3297 Y37.8140 
G01 X52.4504 Y37.7900 
G01 X69.5916 Y37.7900 
G01 X69.7123 Y37.8140 
G01 X69.8260 Y37.8611 
G01 X69.9284 Y37.9295 
G01 X70.0155 Y38.0166 
G01 X70.0839 Y38.1189 
G01 X70.1310 Y38.2327 
G01 X70.1550 Y38.3534 
G01 X70.1550 Y39.5534 
G01 X73.2396 Y46.5530 
G01 X76.4969 Y46.5530 
G01 X76.5402 Y46.5505 
G01 X76.5583 Y46.5530 
G01 X76.5766 Y46.5530 
G01 X76.6192 Y46.5615 
G01 X76.6622 Y46.5675 
G01 X76.6794 Y46.5735 
G01 X76.6973 Y46.5770 
G01 X76.7374 Y46.5936 
G01 X76.7785 Y46.6079 
G01 X76.7942 Y46.6171 
G01 X76.8110 Y46.6241 
G01 X76.8472 Y46.6483 
G01 X76.8846 Y46.6703 
G01 X76.8982 Y46.6824 
G01 X76.9134 Y46.6925 
G01 X76.9441 Y46.7232 
G01 X76.9766 Y46.7521 
G01 X76.9876 Y46.7667 
G01 X77.0005 Y46.7796 
G01 X77.0246 Y46.8157 
G01 X77.0508 Y46.8504 
G01 X77.0587 Y46.8668 
G01 X77.0689 Y46.8820 
G01 X77.0855 Y46.9221 
G01 X78.6070 Y50.0665 
G01 X78.6693 Y50.0764 
G01 X78.8287 Y50.1282 
G01 X78.9781 Y50.2043 
G01 X79.1137 Y50.3028 
G01 X79.2322 Y50.4213 
G01 X79.3307 Y50.5569 
G01 X79.4068 Y50.7063 
G01 X79.4586 Y50.8657 
G01 X79.4848 Y51.0312 
G01 X79.4848 Y51.1988 
G01 X79.4586 Y51.3643 
G01 X79.4068 Y51.5237 
G01 X79.3307 Y51.6731 
G01 X79.2322 Y51.8087 
G01 X79.1137 Y51.9272 
G01 X78.9781 Y52.0257 
G01 X78.8287 Y52.1018 
G01 X78.6693 Y52.1536 
G01 X78.5038 Y52.1798 
G01 X78.3362 Y52.1798 
G01 X78.1707 Y52.1536 
G01 X78.0113 Y52.1018 
G01 X77.8619 Y52.0257 
G01 X77.7263 Y51.9272 
G01 X77.6078 Y51.8087 
G01 X77.5093 Y51.6731 
G01 X77.4332 Y51.5237 
G01 X77.3814 Y51.3643 
G01 X77.3552 Y51.1988 
G01 X77.3552 Y51.0312 
G01 X77.3814 Y50.8657 
G01 X77.4332 Y50.7063 
G01 X77.4818 Y50.6109 
G01 X76.1231 Y47.8030 
G01 X72.8390 Y47.8030 
G01 X72.7844 Y47.8042 
G01 X72.7775 Y47.8030 
G01 X72.7704 Y47.8030 
G01 X72.7169 Y47.7924 
G01 X72.6632 Y47.7829 
G01 X72.6566 Y47.7804 
G01 X72.6497 Y47.7790 
G01 X72.5993 Y47.7581 
G01 X72.5484 Y47.7383 
G01 X72.5425 Y47.7346 
G01 X72.5359 Y47.7319 
G01 X72.4906 Y47.7015 
G01 X72.4445 Y47.6723 
G01 X72.4394 Y47.6674 
G01 X72.4336 Y47.6635 
G01 X72.3950 Y47.6249 
G01 X72.3556 Y47.5872 
G01 X72.3515 Y47.5814 
G01 X72.3465 Y47.5764 
G01 X72.3162 Y47.5311 
G01 X72.2849 Y47.4864 
G01 X72.2820 Y47.4799 
G01 X72.2781 Y47.4740 
G01 X72.2573 Y47.4236 
G01 X68.9801 Y39.9869 
G01 X68.9761 Y39.9810 
G01 X68.9553 Y39.9307 
G01 X68.9332 Y39.8807 
G01 X68.9317 Y39.8738 
G01 X68.9290 Y39.8673 
G01 X68.9184 Y39.8138 
G01 X68.9065 Y39.7605 
G01 X68.9064 Y39.7535 
G01 X68.9050 Y39.7466 
G01 X68.9050 Y39.6920 
G01 X68.9038 Y39.6374 
G01 X68.9050 Y39.6305 
G01 X68.9050 Y39.0400 
G01 X53.1370 Y39.0400 
G01 X53.1370 Y62.5550 
G01 X55.9679 Y62.5550 
G01 X56.0178 Y62.4863 
G01 X56.1363 Y62.3678 
G01 X56.2719 Y62.2693 
G01 X56.4213 Y62.1932 
G01 X56.5807 Y62.1414 
G01 X56.7462 Y62.1152 
G01 X56.9138 Y62.1152 
G01 X57.0793 Y62.1414 
G01 X57.2387 Y62.1932 
G01 X57.3881 Y62.2693 
G01 X57.5237 Y62.3678 
G01 X57.6422 Y62.4863 
G01 X57.7407 Y62.6219 
G01 X57.8168 Y62.7713 
G01 X57.8686 Y62.9307 
G01 X57.8948 Y63.0962 
G01 X57.8948 Y63.2638 
G01 X57.8686 Y63.4293 
G01 X57.8168 Y63.5887 
G01 X57.7407 Y63.7381 
G01 X57.6422 Y63.8737 
G01 X57.5237 Y63.9922 
G01 X57.3881 Y64.0907 
G01 X57.2387 Y64.1668 
G01 X57.0793 Y64.2186 
G01 X56.9138 Y64.2448 
G01 X56.7462 Y64.2448 
G01 X56.5807 Y64.2186 
G01 X56.4213 Y64.1668 
G01 X56.2719 Y64.0907 
G01 X56.1363 Y63.9922 
G00 Z3.0000 
G00 X56.1363 Y61.4522 
G01 Z-0.1778 F200.00 
G01 X56.0178 Y61.3337 F200.00 
G01 X55.9193 Y61.1981 
G01 X55.8432 Y61.0487 
G01 X55.7914 Y60.8893 
G01 X55.7652 Y60.7238 
G01 X55.7652 Y60.5562 
G01 X55.7914 Y60.3907 
G01 X55.8432 Y60.2313 
G01 X55.9193 Y60.0819 
G01 X56.0178 Y59.9463 
G01 X56.1363 Y59.8278 
G01 X56.2719 Y59.7293 
G01 X56.4213 Y59.6532 
G01 X56.5807 Y59.6014 
G01 X56.7462 Y59.5752 
G01 X56.9138 Y59.5752 
G01 X57.0793 Y59.6014 
G01 X57.2387 Y59.6532 
G01 X57.3881 Y59.7293 
G01 X57.5237 Y59.8278 
G01 X57.6422 Y59.9463 
G01 X57.7407 Y60.0819 
G01 X57.8168 Y60.2313 
G01 X57.8686 Y60.3907 
G01 X57.8948 Y60.5562 
G01 X57.8948 Y60.7238 
G01 X57.8686 Y60.8893 
G01 X57.8168 Y61.0487 
G01 X57.7407 Y61.1981 
G01 X57.6422 Y61.3337 
G01 X57.5237 Y61.4522 
G01 X57.3881 Y61.5507 
G01 X57.2387 Y61.6268 
G01 X57.0793 Y61.6786 
G01 X56.9138 Y61.7048 
G01 X56.7462 Y61.7048 
G01 X56.5807 Y61.6786 
G01 X56.4213 Y61.6268 
G01 X56.2719 Y61.5507 
G01 X56.1363 Y61.4522 
G00 Z3.0000 
G00 X56.1363 Y58.9122 
G01 Z-0.1778 F200.00 
G01 X56.0178 Y58.7937 F200.00 
G01 X55.9193 Y58.6581 
G01 X55.8432 Y58.5087 
G01 X55.7914 Y58.3493 
G01 X55.7652 Y58.1838 
G01 X55.7652 Y58.0162 
G01 X55.7914 Y57.8507 
G01 X55.8432 Y57.6913 
G01 X55.9193 Y57.5419 
G01 X56.0178 Y57.4063 
G01 X56.1363 Y57.2878 
G01 X56.2719 Y57.1893 
G01 X56.4213 Y57.1132 
G01 X56.5807 Y57.0614 
G01 X56.7462 Y57.0352 
G01 X56.9138 Y57.0352 
G01 X57.0793 Y57.0614 
G01 X57.2387 Y57.1132 
G01 X57.3881 Y57.1893 
G01 X57.5237 Y57.2878 
G01 X57.6422 Y57.4063 
G01 X57.7407 Y57.5419 
G01 X57.8168 Y57.6913 
G01 X57.8686 Y57.8507 
G01 X57.8948 Y58.0162 
G01 X57.8948 Y58.1838 
G01 X57.8686 Y58.3493 
G01 X57.8168 Y58.5087 
G01 X57.7407 Y58.6581 
G01 X57.6422 Y58.7937 
G01 X57.5237 Y58.9122 
G01 X57.3881 Y59.0107 
G01 X57.2387 Y59.0868 
G01 X57.0793 Y59.1386 
G01 X56.9138 Y59.1648 
G01 X56.7462 Y59.1648 
G01 X56.5807 Y59.1386 
G01 X56.4213 Y59.0868 
G01 X56.2719 Y59.0107 
G01 X56.1363 Y58.9122 
G00 Z3.0000 
G00 X56.1363 Y56.3722 
G01 Z-0.1778 F200.00 
G01 X56.0178 Y56.2537 F200.00 
G01 X55.9193 Y56.1181 
G01 X55.8432 Y55.9687 
G01 X55.7914 Y55.8093 
G01 X55.7652 Y55.6438 
G01 X55.7652 Y55.4762 
G01 X55.7914 Y55.3107 
G01 X55.8432 Y55.1513 
G01 X55.9193 Y55.0019 
G01 X56.0178 Y54.8663 
G01 X56.1363 Y54.7478 
G01 X56.2719 Y54.6493 
G01 X56.4213 Y54.5732 
G01 X56.5807 Y54.5214 
G01 X56.7462 Y54.4952 
G01 X56.9138 Y54.4952 
G01 X57.0793 Y54.5214 
G01 X57.2387 Y54.5732 
G01 X57.3881 Y54.6493 
G01 X57.5237 Y54.7478 
G01 X57.6422 Y54.8663 
G01 X57.6921 Y54.9350 
G01 X58.4386 Y54.9350 
G01 X58.4576 Y54.9324 
G01 X58.5001 Y54.9350 
G01 X58.5426 Y54.9350 
G01 X58.5614 Y54.9387 
G01 X58.5805 Y54.9399 
G01 X58.6216 Y54.9507 
G01 X58.6633 Y54.9590 
G01 X58.6810 Y54.9664 
G01 X58.6996 Y54.9712 
G01 X58.7378 Y54.9899 
G01 X58.7770 Y55.0061 
G01 X58.7930 Y55.0168 
G01 X58.8103 Y55.0252 
G01 X58.8441 Y55.0509 
G01 X58.8794 Y55.0745 
G01 X58.8930 Y55.0881 
G01 X58.9083 Y55.0997 
G01 X58.9364 Y55.1316 
G01 X58.9665 Y55.1616 
G01 X58.9771 Y55.1775 
G01 X58.9898 Y55.1919 
G01 X59.0113 Y55.2286 
G01 X59.0349 Y55.2640 
G01 X59.0422 Y55.2817 
G01 X59.0519 Y55.2983 
G01 X59.0657 Y55.3384 
G01 X59.0820 Y55.3777 
G01 X59.0857 Y55.3965 
G01 X62.8638 Y66.3650 
G01 X75.9416 Y66.3650 
G01 X76.0623 Y66.3890 
G01 X76.1760 Y66.4361 
G01 X76.2784 Y66.5045 
G01 X76.3655 Y66.5916 
G01 X76.4339 Y66.6940 
G01 X76.4810 Y66.8077 
G01 X76.5050 Y66.9284 
G01 X76.5050 Y67.3979 
G01 X76.5737 Y67.4478 
G01 X76.6922 Y67.5663 
G01 X76.7907 Y67.7019 
G01 X76.8668 Y67.8513 
G01 X76.9186 Y68.0107 
G01 X76.9448 Y68.1762 
G01 X76.9448 Y68.3438 
G01 X76.9186 Y68.5093 
G01 X76.8668 Y68.6687 
G01 X76.7907 Y68.8181 
G01 X76.6922 Y68.9537 
G01 X76.5737 Y69.0722 
G01 X76.5050 Y69.1221 
G01 X76.5050 Y72.4779 
G01 X76.5737 Y72.5278 
G01 X76.6922 Y72.6463 
G01 X76.7907 Y72.7819 
G01 X76.8668 Y72.9313 
G01 X76.9186 Y73.0907 
G01 X76.9448 Y73.2562 
G01 X76.9448 Y73.4238 
G01 X76.9186 Y73.5893 
G01 X76.8668 Y73.7487 
G01 X76.7907 Y73.8981 
G01 X76.6922 Y74.0337 
G01 X76.5737 Y74.1522 
G01 X76.4381 Y74.2507 
G01 X76.2887 Y74.3268 
G01 X76.1293 Y74.3786 
G01 X75.9638 Y74.4048 
G01 X75.7962 Y74.4048 
G01 X75.6307 Y74.3786 
G01 X75.4713 Y74.3268 
G01 X75.3219 Y74.2507 
G01 X75.1863 Y74.1522 
G01 X75.0678 Y74.0337 
G01 X74.9693 Y73.8981 
G01 X74.8932 Y73.7487 
G01 X74.8414 Y73.5893 
G01 X74.8152 Y73.4238 
G01 X74.8152 Y73.2562 
G01 X74.8414 Y73.0907 
G01 X74.8932 Y72.9313 
G01 X74.9693 Y72.7819 
G01 X75.0678 Y72.6463 
G01 X75.1863 Y72.5278 
G01 X75.2550 Y72.4779 
G01 X75.2550 Y69.1221 
G01 X75.1863 Y69.0722 
G01 X75.0678 Y68.9537 
G01 X74.9693 Y68.8181 
G01 X74.8932 Y68.6687 
G01 X74.8414 Y68.5093 
G01 X74.8152 Y68.3438 
G01 X74.8152 Y68.1762 
G01 X74.8414 Y68.0107 
G01 X74.8932 Y67.8513 
G01 X74.9693 Y67.7019 
G01 X75.0325 Y67.6150 
G01 X62.4604 Y67.6150 
G01 X62.4414 Y67.6176 
G01 X62.3989 Y67.6150 
G01 X62.3564 Y67.6150 
G01 X62.3376 Y67.6113 
G01 X62.3185 Y67.6101 
G01 X62.2774 Y67.5993 
G01 X62.2357 Y67.5910 
G01 X62.2180 Y67.5836 
G01 X62.1994 Y67.5787 
G01 X62.1612 Y67.5601 
G01 X62.1219 Y67.5439 
G01 X62.1060 Y67.5332 
G01 X62.0887 Y67.5248 
G01 X62.0549 Y67.4991 
G01 X62.0196 Y67.4755 
G01 X62.0060 Y67.4619 
G01 X61.9907 Y67.4503 
G01 X61.9626 Y67.4184 
G01 X61.9325 Y67.3884 
G01 X61.9219 Y67.3725 
G01 X61.9091 Y67.3581 
G01 X61.8877 Y67.3214 
G01 X61.8641 Y67.2860 
G01 X61.8568 Y67.2683 
G01 X61.8471 Y67.2517 
G01 X61.8333 Y67.2116 
G01 X61.8170 Y67.1723 
G01 X61.8133 Y67.1535 
G01 X58.0352 Y56.1850 
G01 X57.6921 Y56.1850 
G01 X57.6422 Y56.2537 
G01 X57.5237 Y56.3722 
G01 X57.3881 Y56.4707 
G01 X57.2387 Y56.5468 
G01 X57.0793 Y56.5986 
G01 X56.9138 Y56.6248 
G01 X56.7462 Y56.6248 
G01 X56.5807 Y56.5986 
G01 X56.4213 Y56.5468 
G01 X56.2719 Y56.4707 
G01 X56.1363 Y56.3722 
G00 Z3.0000 
G00 X56.1363 Y53.8322 
G01 Z-0.1778 F200.00 
G01 X56.0178 Y53.7137 F200.00 
G01 X55.9193 Y53.5781 
G01 X55.8432 Y53.4287 
G01 X55.7914 Y53.2693 
G01 X55.7652 Y53.1038 
G01 X55.7652 Y52.9362 
G01 X55.7914 Y52.7707 
G01 X55.8432 Y52.6113 
G01 X55.9193 Y52.4619 
G01 X56.0178 Y52.3263 
G01 X56.1363 Y52.2078 
G01 X56.2719 Y52.1093 
G01 X56.4213 Y52.0332 
G01 X56.5807 Y51.9814 
G01 X56.7462 Y51.9552 
G01 X56.9138 Y51.9552 
G01 X57.0793 Y51.9814 
G01 X57.2387 Y52.0332 
G01 X57.3881 Y52.1093 
G01 X57.5237 Y52.2078 
G01 X57.6422 Y52.3263 
G01 X57.6921 Y52.3950 
G01 X60.2131 Y52.3950 
G01 X60.2285 Y52.3927 
G01 X60.2745 Y52.3950 
G01 X60.3206 Y52.3950 
G01 X60.3359 Y52.3981 
G01 X60.3515 Y52.3988 
G01 X60.3962 Y52.4100 
G01 X60.4413 Y52.4190 
G01 X60.4558 Y52.4250 
G01 X60.4709 Y52.4288 
G01 X60.5125 Y52.4485 
G01 X60.5550 Y52.4661 
G01 X60.5680 Y52.4748 
G01 X60.5822 Y52.4815 
G01 X60.6191 Y52.5090 
G01 X60.6574 Y52.5345 
G01 X60.6685 Y52.5456 
G01 X60.6810 Y52.5549 
G01 X60.7119 Y52.5890 
G01 X60.7445 Y52.6216 
G01 X60.7532 Y52.6346 
G01 X60.7636 Y52.6462 
G01 X60.7873 Y52.6857 
G01 X60.8129 Y52.7240 
G01 X60.8188 Y52.7384 
G01 X60.8269 Y52.7518 
G01 X60.8424 Y52.7952 
G01 X60.8600 Y52.8377 
G01 X60.8630 Y52.8530 
G01 X64.5094 Y63.0630 
G01 X78.4816 Y63.0630 
G01 X78.6023 Y63.0870 
G01 X78.7160 Y63.1341 
G01 X78.8184 Y63.2025 
G01 X78.9055 Y63.2896 
G01 X78.9739 Y63.3920 
G01 X79.0210 Y63.5057 
G01 X79.0450 Y63.6264 
G01 X79.0450 Y67.3979 
G01 X79.1137 Y67.4478 
G01 X79.2322 Y67.5663 
G01 X79.3307 Y67.7019 
G01 X79.4068 Y67.8513 
G01 X79.4586 Y68.0107 
G01 X79.4848 Y68.1762 
G01 X79.4848 Y68.3438 
G01 X79.4586 Y68.5093 
G01 X79.4068 Y68.6687 
G01 X79.3307 Y68.8181 
G01 X79.2322 Y68.9537 
G01 X79.1137 Y69.0722 
G01 X79.0450 Y69.1221 
G01 X79.0450 Y72.4779 
G01 X79.1137 Y72.5278 
G01 X79.2322 Y72.6463 
G01 X79.3307 Y72.7819 
G01 X79.4068 Y72.9313 
G01 X79.4586 Y73.0907 
G01 X79.4848 Y73.2562 
G01 X79.4848 Y73.4238 
G01 X79.4586 Y73.5893 
G01 X79.4068 Y73.7487 
G01 X79.3307 Y73.8981 
G01 X79.2322 Y74.0337 
G01 X79.1137 Y74.1522 
G01 X78.9781 Y74.2507 
G01 X78.8287 Y74.3268 
G01 X78.6693 Y74.3786 
G01 X78.5038 Y74.4048 
G01 X78.3362 Y74.4048 
G01 X78.1707 Y74.3786 
G01 X78.0113 Y74.3268 
G01 X77.8619 Y74.2507 
G01 X77.7263 Y74.1522 
G01 X77.6078 Y74.0337 
G01 X77.5093 Y73.8981 
G01 X77.4332 Y73.7487 
G01 X77.3814 Y73.5893 
G01 X77.3552 Y73.4238 
G01 X77.3552 Y73.2562 
G01 X77.3814 Y73.0907 
G01 X77.4332 Y72.9313 
G01 X77.5093 Y72.7819 
G01 X77.6078 Y72.6463 
G01 X77.7263 Y72.5278 
G01 X77.7950 Y72.4779 
G01 X77.7950 Y69.1221 
G01 X77.7263 Y69.0722 
G01 X77.6078 Y68.9537 
G01 X77.5093 Y68.8181 
G01 X77.4332 Y68.6687 
G01 X77.3814 Y68.5093 
G01 X77.3552 Y68.3438 
G01 X77.3552 Y68.1762 
G01 X77.3814 Y68.0107 
G01 X77.4332 Y67.8513 
G01 X77.5093 Y67.7019 
G01 X77.6078 Y67.5663 
G01 X77.7263 Y67.4478 
G01 X77.7950 Y67.3979 
G01 X77.7950 Y64.3130 
G01 X64.1149 Y64.3130 
G01 X64.0994 Y64.3153 
G01 X64.0535 Y64.3130 
G01 X64.0074 Y64.3130 
G01 X63.9921 Y64.3099 
G01 X63.9765 Y64.3092 
G01 X63.9318 Y64.2980 
G01 X63.8867 Y64.2890 
G01 X63.8722 Y64.2830 
G01 X63.8571 Y64.2792 
G01 X63.8155 Y64.2595 
G01 X63.7730 Y64.2419 
G01 X63.7599 Y64.2332 
G01 X63.7458 Y64.2265 
G01 X63.7089 Y64.1990 
G01 X63.6706 Y64.1735 
G01 X63.6595 Y64.1624 
G01 X63.6470 Y64.1531 
G01 X63.6161 Y64.1190 
G01 X63.5835 Y64.0864 
G01 X63.5748 Y64.0734 
G01 X63.5643 Y64.0618 
G01 X63.5407 Y64.0223 
G01 X63.5151 Y63.9840 
G01 X63.5091 Y63.9696 
G01 X63.5011 Y63.9562 
G01 X63.4856 Y63.9128 
G01 X63.4680 Y63.8703 
G01 X63.4650 Y63.8550 
G01 X59.8186 Y53.6450 
G01 X57.6921 Y53.6450 
G01 X57.6422 Y53.7137 
G01 X57.5237 Y53.8322 
G01 X57.3881 Y53.9307 
G01 X57.2387 Y54.0068 
G01 X57.0793 Y54.0586 
G01 X56.9138 Y54.0848 
G01 X56.7462 Y54.0848 
G01 X56.5807 Y54.0586 
G01 X56.4213 Y54.0068 
G01 X56.2719 Y53.9307 
G01 X56.1363 Y53.8322 
G00 Z3.0000 
G00 X56.1363 Y51.2922 
G01 Z-0.1778 F200.00 
G01 X56.0178 Y51.1737 F200.00 
G01 X55.9193 Y51.0381 
G01 X55.8432 Y50.8887 
G01 X55.7914 Y50.7293 
G01 X55.7652 Y50.5638 
G01 X55.7652 Y50.3962 
G01 X55.7914 Y50.2307 
G01 X55.8432 Y50.0713 
G01 X55.9193 Y49.9219 
G01 X56.0178 Y49.7863 
G01 X56.1363 Y49.6678 
G01 X56.2719 Y49.5693 
G01 X56.4213 Y49.4932 
G01 X56.5807 Y49.4414 
G01 X56.7462 Y49.4152 
G01 X56.9138 Y49.4152 
G01 X57.0793 Y49.4414 
G01 X57.2387 Y49.4932 
G01 X57.3881 Y49.5693 
G01 X57.5237 Y49.6678 
G01 X57.6422 Y49.7863 
G01 X57.6921 Y49.8550 
G01 X61.8523 Y49.8550 
G01 X61.8561 Y49.8543 
G01 X61.9138 Y49.8550 
G01 X61.9716 Y49.8550 
G01 X61.9753 Y49.8558 
G01 X61.9792 Y49.8558 
G01 X62.0357 Y49.8678 
G01 X62.0923 Y49.8790 
G01 X62.0958 Y49.8805 
G01 X62.0996 Y49.8813 
G01 X62.1528 Y49.9041 
G01 X62.2060 Y49.9261 
G01 X62.2092 Y49.9283 
G01 X62.2128 Y49.9298 
G01 X62.2605 Y49.9625 
G01 X62.3084 Y49.9945 
G01 X62.3111 Y49.9972 
G01 X62.3143 Y49.9994 
G01 X62.3546 Y50.0408 
G01 X62.3955 Y50.0816 
G01 X62.3976 Y50.0848 
G01 X62.4003 Y50.0875 
G01 X62.4318 Y50.1359 
G01 X62.4639 Y50.1839 
G01 X62.4653 Y50.1875 
G01 X62.4674 Y50.1907 
G01 X62.4889 Y50.2444 
G01 X62.5110 Y50.2977 
G01 X62.5117 Y50.3015 
G01 X66.3971 Y60.0150 
G01 X77.7950 Y60.0150 
G01 X77.7950 Y57.6921 
G01 X77.7263 Y57.6422 
G01 X77.6078 Y57.5237 
G01 X77.5093 Y57.3881 
G01 X77.4332 Y57.2387 
G01 X77.3814 Y57.0793 
G01 X77.3552 Y56.9138 
G01 X77.3552 Y56.7462 
G01 X77.3814 Y56.5807 
G01 X77.4332 Y56.4213 
G01 X77.5093 Y56.2719 
G01 X77.6078 Y56.1363 
G01 X77.7263 Y56.0178 
G01 X77.8619 Y55.9193 
G01 X78.0113 Y55.8432 
G01 X78.1707 Y55.7914 
G01 X78.3362 Y55.7652 
G01 X78.5038 Y55.7652 
G01 X78.6693 Y55.7914 
G01 X78.8287 Y55.8432 
G01 X78.9781 Y55.9193 
G01 X79.1137 Y56.0178 
G01 X79.2322 Y56.1363 
G01 X79.3307 Y56.2719 
G01 X79.4068 Y56.4213 
G01 X79.4586 Y56.5807 
G01 X79.4848 Y56.7462 
G01 X79.4848 Y56.9138 
G01 X79.4586 Y57.0793 
G01 X79.4068 Y57.2387 
G01 X79.3307 Y57.3881 
G01 X79.2322 Y57.5237 
G01 X79.1137 Y57.6422 
G01 X79.0450 Y57.6921 
G01 X79.0450 Y60.7016 
G01 X79.0210 Y60.8223 
G01 X78.9739 Y60.9360 
G01 X78.9055 Y61.0384 
G01 X78.8184 Y61.1255 
G01 X78.7160 Y61.1939 
G01 X78.6023 Y61.2410 
G01 X78.4816 Y61.2650 
G01 X66.0317 Y61.2650 
G01 X66.0279 Y61.2657 
G01 X65.9702 Y61.2650 
G01 X65.9124 Y61.2650 
G01 X65.9087 Y61.2642 
G01 X65.9048 Y61.2642 
G01 X65.8483 Y61.2522 
G01 X65.7917 Y61.2410 
G01 X65.7881 Y61.2395 
G01 X65.7844 Y61.2387 
G01 X65.7312 Y61.2159 
G01 X65.6780 Y61.1939 
G01 X65.6748 Y61.1917 
G01 X65.6712 Y61.1902 
G01 X65.6236 Y61.1575 
G01 X65.5756 Y61.1255 
G01 X65.5729 Y61.1227 
G01 X65.5697 Y61.1206 
G01 X65.5294 Y61.0792 
G01 X65.4885 Y61.0384 
G01 X65.4864 Y61.0352 
G01 X65.4837 Y61.0325 
G01 X65.4522 Y60.9841 
G01 X65.4201 Y60.9360 
G01 X65.4187 Y60.9325 
G01 X65.4166 Y60.9293 
G01 X65.3951 Y60.8756 
G01 X65.3730 Y60.8223 
G01 X65.3723 Y60.8185 
G01 X61.4869 Y51.1050 
G01 X57.6921 Y51.1050 
G01 X57.6422 Y51.1737 
G01 X57.5237 Y51.2922 
G01 X57.3881 Y51.3907 
G01 X57.2387 Y51.4668 
G01 X57.0793 Y51.5186 
G01 X56.9138 Y51.5448 
G01 X56.7462 Y51.5448 
G01 X56.5807 Y51.5186 
G01 X56.4213 Y51.4668 
G01 X56.2719 Y51.3907 
G01 X56.1363 Y51.2922 
G00 Z3.0000 
G00 X56.1363 Y48.7522 
G01 Z-0.1778 F200.00 
G01 X56.0178 Y48.6337 F200.00 
G01 X55.9193 Y48.4981 
G01 X55.8432 Y48.3487 
G01 X55.7914 Y48.1893 
G01 X55.7652 Y48.0238 
G01 X55.7652 Y47.8562 
G01 X55.7914 Y47.6907 
G01 X55.8432 Y47.5313 
G01 X55.9193 Y47.3819 
G01 X56.0178 Y47.2463 
G01 X56.1363 Y47.1278 
G01 X56.2719 Y47.0293 
G01 X56.4213 Y46.9532 
G01 X56.5807 Y46.9014 
G01 X56.7462 Y46.8752 
G01 X56.9138 Y46.8752 
G01 X57.0793 Y46.9014 
G01 X57.2387 Y46.9532 
G01 X57.3881 Y47.0293 
G01 X57.5237 Y47.1278 
G01 X57.6422 Y47.2463 
G01 X57.6921 Y47.3150 
G01 X63.7573 Y47.3150 
G01 X63.7611 Y47.3143 
G01 X63.8188 Y47.3150 
G01 X63.8766 Y47.3150 
G01 X63.8803 Y47.3158 
G01 X63.8842 Y47.3158 
G01 X63.9407 Y47.3278 
G01 X63.9973 Y47.3390 
G01 X64.0008 Y47.3405 
G01 X64.0046 Y47.3413 
G01 X64.0578 Y47.3641 
G01 X64.1110 Y47.3861 
G01 X64.1142 Y47.3883 
G01 X64.1178 Y47.3898 
G01 X64.1654 Y47.4225 
G01 X64.2134 Y47.4545 
G01 X64.2161 Y47.4573 
G01 X64.2193 Y47.4594 
G01 X64.2596 Y47.5008 
G01 X64.3005 Y47.5416 
G01 X64.3026 Y47.5448 
G01 X64.3053 Y47.5475 
G01 X64.3368 Y47.5959 
G01 X64.3689 Y47.6440 
G01 X64.3703 Y47.6475 
G01 X64.3724 Y47.6507 
G01 X64.3939 Y47.7044 
G01 X64.4160 Y47.7577 
G01 X64.4167 Y47.7615 
G01 X67.7941 Y56.2050 
G01 X75.0179 Y56.2050 
G01 X75.0678 Y56.1363 
G01 X75.1863 Y56.0178 
G01 X75.3219 Y55.9193 
G01 X75.4713 Y55.8432 
G01 X75.6307 Y55.7914 
G01 X75.7962 Y55.7652 
G01 X75.9638 Y55.7652 
G01 X76.1293 Y55.7914 
G01 X76.2887 Y55.8432 
G01 X76.4381 Y55.9193 
G01 X76.5737 Y56.0178 
G01 X76.6922 Y56.1363 
G01 X76.7907 Y56.2719 
G01 X76.8668 Y56.4213 
G01 X76.9186 Y56.5807 
G01 X76.9448 Y56.7462 
G01 X76.9448 Y56.9138 
G01 X76.9186 Y57.0793 
G01 X76.8668 Y57.2387 
G01 X76.7907 Y57.3881 
G01 X76.6922 Y57.5237 
G01 X76.5737 Y57.6422 
G01 X76.4381 Y57.7407 
G01 X76.2887 Y57.8168 
G01 X76.1293 Y57.8686 
G01 X75.9638 Y57.8948 
G01 X75.7962 Y57.8948 
G01 X75.6307 Y57.8686 
G01 X75.4713 Y57.8168 
G01 X75.3219 Y57.7407 
G01 X75.1863 Y57.6422 
G01 X75.0678 Y57.5237 
G01 X75.0179 Y57.4550 
G01 X67.4287 Y57.4550 
G01 X67.4249 Y57.4557 
G01 X67.3672 Y57.4550 
G01 X67.3094 Y57.4550 
G01 X67.3057 Y57.4542 
G01 X67.3018 Y57.4542 
G01 X67.2453 Y57.4422 
G01 X67.1887 Y57.4310 
G01 X67.1851 Y57.4295 
G01 X67.1814 Y57.4287 
G01 X67.1282 Y57.4059 
G01 X67.0750 Y57.3839 
G01 X67.0718 Y57.3817 
G01 X67.0682 Y57.3802 
G01 X67.0206 Y57.3475 
G01 X66.9726 Y57.3155 
G01 X66.9699 Y57.3127 
G01 X66.9667 Y57.3106 
G01 X66.9264 Y57.2692 
G01 X66.8855 Y57.2284 
G01 X66.8834 Y57.2252 
G01 X66.8807 Y57.2225 
G01 X66.8492 Y57.1741 
G01 X66.8171 Y57.1260 
G01 X66.8157 Y57.1225 
G01 X66.8136 Y57.1193 
G01 X66.7921 Y57.0656 
G01 X66.7700 Y57.0123 
G01 X66.7693 Y57.0085 
G01 X63.3919 Y48.5650 
G01 X57.6921 Y48.5650 
G01 X57.6422 Y48.6337 
G01 X57.5237 Y48.7522 
G01 X57.3881 Y48.8507 
G01 X57.2387 Y48.9268 
G01 X57.0793 Y48.9786 
G01 X56.9138 Y49.0048 
G01 X56.7462 Y49.0048 
G01 X56.5807 Y48.9786 
G01 X56.4213 Y48.9268 
G01 X56.2719 Y48.8507 
G01 X56.1363 Y48.7522 
G00 Z3.0000 
G00 X56.1363 Y46.2122 
G01 Z-0.1778 F200.00 
G01 X56.0178 Y46.0937 F200.00 
G01 X55.9193 Y45.9581 
G01 X55.8432 Y45.8087 
G01 X55.7914 Y45.6493 
G01 X55.7652 Y45.4838 
G01 X55.7652 Y45.3162 
G01 X55.7914 Y45.1507 
G01 X55.8432 Y44.9913 
G01 X55.9193 Y44.8419 
G01 X56.0178 Y44.7063 
G01 X56.1363 Y44.5878 
G01 X56.2719 Y44.4893 
G01 X56.4213 Y44.4132 
G01 X56.5807 Y44.3614 
G01 X56.7462 Y44.3352 
G01 X56.9138 Y44.3352 
G01 X57.0793 Y44.3614 
G01 X57.2387 Y44.4132 
G01 X57.3881 Y44.4893 
G01 X57.5237 Y44.5878 
G01 X57.6422 Y44.7063 
G01 X57.6921 Y44.7750 
G01 X65.7193 Y44.7750 
G01 X65.7815 Y44.7750 
G01 X65.8369 Y44.7860 
G01 X65.9023 Y44.7990 
G01 X65.9474 Y44.8177 
G01 X66.0160 Y44.8461 
G01 X66.0673 Y44.8804 
G01 X66.1184 Y44.9145 
G01 X66.1616 Y44.9577 
G01 X66.2054 Y45.0016 
G01 X66.2339 Y45.0442 
G01 X66.2738 Y45.1039 
G01 X66.2983 Y45.1629 
G01 X69.8206 Y53.6650 
G01 X75.2550 Y53.6650 
G01 X75.2550 Y51.9771 
G01 X75.1863 Y51.9272 
G01 X75.0678 Y51.8087 
G01 X74.9693 Y51.6731 
G01 X74.8932 Y51.5237 
G01 X74.8414 Y51.3643 
G01 X74.8152 Y51.1988 
G01 X74.8152 Y51.0312 
G01 X74.8414 Y50.8657 
G01 X74.8932 Y50.7063 
G01 X74.9693 Y50.5569 
G01 X75.0678 Y50.4213 
G01 X75.1863 Y50.3028 
G01 X75.3219 Y50.2043 
G01 X75.4713 Y50.1282 
G01 X75.6307 Y50.0764 
G01 X75.7962 Y50.0502 
G01 X75.9638 Y50.0502 
G01 X76.1293 Y50.0764 
G01 X76.2887 Y50.1282 
G01 X76.4381 Y50.2043 
G01 X76.5737 Y50.3028 
G01 X76.6922 Y50.4213 
G01 X76.7907 Y50.5569 
G01 X76.8668 Y50.7063 
G01 X76.9186 Y50.8657 
G01 X76.9448 Y51.0312 
G01 X76.9448 Y51.1988 
G01 X76.9186 Y51.3643 
G01 X76.8668 Y51.5237 
G01 X76.7907 Y51.6731 
G01 X76.6922 Y51.8087 
G01 X76.5737 Y51.9272 
G01 X76.5050 Y51.9771 
G01 X76.5050 Y54.3516 
G01 X76.4810 Y54.4723 
G01 X76.4339 Y54.5860 
G01 X76.3655 Y54.6884 
G01 X76.2784 Y54.7755 
G01 X76.1760 Y54.8439 
G01 X76.0623 Y54.8910 
G01 X75.9416 Y54.9150 
G01 X69.4024 Y54.9150 
G01 X69.3415 Y54.9150 
G01 X69.2852 Y54.9038 
G01 X69.2207 Y54.8910 
G01 X69.1744 Y54.8718 
G01 X69.1070 Y54.8439 
G01 X69.0547 Y54.8089 
G01 X69.0046 Y54.7755 
G01 X68.9607 Y54.7316 
G01 X68.9176 Y54.6884 
G01 X68.8883 Y54.6446 
G01 X68.8492 Y54.5861 
G01 X68.8243 Y54.5261 
G01 X65.3024 Y46.0250 
G01 X57.6921 Y46.0250 
G01 X57.6422 Y46.0937 
G01 X57.5237 Y46.2122 
G01 X57.3881 Y46.3107 
G01 X57.2387 Y46.3868 
G01 X57.0793 Y46.4386 
G01 X56.9138 Y46.4648 
G01 X56.7462 Y46.4648 
G01 X56.5807 Y46.4386 
G01 X56.4213 Y46.3868 
G01 X56.2719 Y46.3107 
G01 X56.1363 Y46.2122 
G00 Z3.0000 
G00 X56.1363 Y43.6722 
G01 Z-0.1778 F200.00 
G01 X56.0178 Y43.5537 F200.00 
G01 X55.9193 Y43.4181 
G01 X55.8432 Y43.2687 
G01 X55.7914 Y43.1093 
G01 X55.7652 Y42.9438 
G01 X55.7652 Y42.7762 
G01 X55.7914 Y42.6107 
G01 X55.8432 Y42.4513 
G01 X55.9193 Y42.3019 
G01 X56.0178 Y42.1663 
G01 X56.1363 Y42.0478 
G01 X56.2719 Y41.9493 
G01 X56.4213 Y41.8732 
G01 X56.5807 Y41.8214 
G01 X56.7462 Y41.7952 
G01 X56.9138 Y41.7952 
G01 X57.0793 Y41.8214 
G01 X57.2387 Y41.8732 
G01 X57.3881 Y41.9493 
G01 X57.5237 Y42.0478 
G01 X57.6422 Y42.1663 
G01 X57.6921 Y42.2350 
G01 X67.7476 Y42.2350 
G01 X67.8048 Y42.2342 
G01 X67.8091 Y42.2350 
G01 X67.8136 Y42.2350 
G01 X67.8696 Y42.2461 
G01 X67.9258 Y42.2565 
G01 X67.9300 Y42.2582 
G01 X67.9343 Y42.2590 
G01 X67.9871 Y42.2809 
G01 X68.0402 Y42.3020 
G01 X68.0439 Y42.3044 
G01 X68.0480 Y42.3061 
G01 X68.0956 Y42.3379 
G01 X68.1436 Y42.3690 
G01 X68.1467 Y42.3721 
G01 X68.1504 Y42.3745 
G01 X68.1908 Y42.4149 
G01 X68.2318 Y42.4548 
G01 X68.2343 Y42.4585 
G01 X68.2375 Y42.4616 
G01 X68.2692 Y42.5091 
G01 X68.3017 Y42.5562 
G01 X68.3034 Y42.5603 
G01 X68.3059 Y42.5639 
G01 X68.3277 Y42.6167 
G01 X71.7193 Y50.4900 
G01 X72.4779 Y50.4900 
G01 X72.5278 Y50.4213 
G01 X72.6463 Y50.3028 
G01 X72.7819 Y50.2043 
G01 X72.9313 Y50.1282 
G01 X73.0907 Y50.0764 
G01 X73.2562 Y50.0502 
G01 X73.4238 Y50.0502 
G01 X73.5893 Y50.0764 
G01 X73.7487 Y50.1282 
G01 X73.8981 Y50.2043 
G01 X74.0337 Y50.3028 
G01 X74.1522 Y50.4213 
G01 X74.2507 Y50.5569 
G01 X74.3268 Y50.7063 
G01 X74.3786 Y50.8657 
G01 X74.4048 Y51.0312 
G01 X74.4048 Y51.1988 
G01 X74.3786 Y51.3643 
G01 X74.3268 Y51.5237 
G01 X74.2507 Y51.6731 
G01 X74.1522 Y51.8087 
G01 X74.0337 Y51.9272 
G01 X73.8981 Y52.0257 
G01 X73.7487 Y52.1018 
G01 X73.5893 Y52.1536 
G01 X73.4238 Y52.1798 
G01 X73.2562 Y52.1798 
G01 X73.0907 Y52.1536 
G01 X72.9313 Y52.1018 
G01 X72.7819 Y52.0257 
G01 X72.6463 Y51.9272 
G01 X72.5278 Y51.8087 
G01 X72.4779 Y51.7400 
G01 X71.3124 Y51.7400 
G01 X71.2552 Y51.7408 
G01 X71.2509 Y51.7400 
G01 X71.2464 Y51.7400 
G01 X71.1904 Y51.7289 
G01 X71.1342 Y51.7185 
G01 X71.1300 Y51.7168 
G01 X71.1257 Y51.7160 
G01 X71.0729 Y51.6941 
G01 X71.0198 Y51.6730 
G01 X71.0160 Y51.6706 
G01 X71.0119 Y51.6689 
G01 X70.9644 Y51.6371 
G01 X70.9164 Y51.6060 
G01 X70.9133 Y51.6029 
G01 X70.9096 Y51.6005 
G01 X70.8692 Y51.5601 
G01 X70.8282 Y51.5202 
G01 X70.8257 Y51.5165 
G01 X70.8225 Y51.5134 
G01 X70.7908 Y51.4659 
G01 X70.7583 Y51.4188 
G01 X70.7566 Y51.4147 
G01 X70.7541 Y51.4110 
G01 X70.7323 Y51.3583 
G01 X67.3407 Y43.4850 
G01 X57.6921 Y43.4850 
G01 X57.6422 Y43.5537 
G01 X57.5237 Y43.6722 
G01 X57.3881 Y43.7707 
G01 X57.2387 Y43.8468 
G01 X57.0793 Y43.8986 
G01 X56.9138 Y43.9248 
G01 X56.7462 Y43.9248 
G01 X56.5807 Y43.8986 
G01 X56.4213 Y43.8468 
G01 X56.2719 Y43.7707 
G01 X56.1363 Y43.6722 
G00 Z3.0000 
G00 X76.0348 Y41.9948 
G01 Z-0.1778 F200.00 
G01 X76.0325 Y41.9914 F200.00 
G01 X76.0295 Y41.9884 
G01 X75.9976 Y41.9407 
G01 X74.6355 Y39.9594 
G01 X74.6325 Y39.9564 
G01 X74.6006 Y39.9087 
G01 X74.5681 Y39.8614 
G01 X74.5665 Y39.8575 
G01 X74.5641 Y39.8540 
G01 X74.5421 Y39.8009 
G01 X74.5195 Y39.7482 
G01 X74.5186 Y39.7442 
G01 X74.5170 Y39.7403 
G01 X74.5058 Y39.6840 
G01 X74.4939 Y39.6278 
G01 X74.4938 Y39.6236 
G01 X74.4930 Y39.6196 
G01 X74.4930 Y39.5621 
G01 X74.4922 Y39.5047 
G01 X74.4930 Y39.5006 
G01 X74.4930 Y37.9584 
G01 X74.3698 Y37.8352 
G01 X74.2644 Y37.6774 
G01 X74.1918 Y37.5022 
G01 X74.1548 Y37.3161 
G01 X74.1548 Y35.4499 
G01 X74.1918 Y35.2638 
G01 X74.2644 Y35.0886 
G01 X74.3698 Y34.9308 
G01 X74.5040 Y34.7966 
G01 X74.6618 Y34.6912 
G01 X74.8370 Y34.6186 
G01 X75.0231 Y34.5816 
G01 X75.2129 Y34.5816 
G01 X75.3990 Y34.6186 
G01 X75.5742 Y34.6912 
G01 X75.7320 Y34.7966 
G01 X75.8662 Y34.9308 
G01 X75.9716 Y35.0886 
G01 X76.0442 Y35.2638 
G01 X76.0812 Y35.4499 
G01 X76.0812 Y37.3161 
G01 X76.0442 Y37.5022 
G01 X75.9716 Y37.6774 
G01 X75.8662 Y37.8352 
G01 X75.7430 Y37.9584 
G01 X75.7430 Y39.3639 
G01 X76.8438 Y40.9650 
G01 X79.7000 Y40.9650 
G01 X79.7000 Y38.9884 
G01 X79.7240 Y38.8677 
G01 X79.7711 Y38.7540 
G01 X79.8395 Y38.6516 
G01 X79.9266 Y38.5645 
G01 X80.0290 Y38.4961 
G01 X80.1427 Y38.4490 
G01 X80.2634 Y38.4250 
G01 X82.6379 Y38.4250 
G01 X82.6878 Y38.3563 
G01 X82.8063 Y38.2378 
G01 X82.9419 Y38.1393 
G01 X83.0913 Y38.0632 
G01 X83.2507 Y38.0114 
G01 X83.4162 Y37.9852 
G01 X83.5838 Y37.9852 
G01 X83.7493 Y38.0114 
G01 X83.9087 Y38.0632 
G01 X84.0581 Y38.1393 
G01 X84.1937 Y38.2378 
G01 X84.3122 Y38.3563 
G01 X84.4107 Y38.4919 
G01 X84.4868 Y38.6413 
G01 X84.5386 Y38.8007 
G01 X84.5648 Y38.9662 
G01 X84.5648 Y39.1338 
G01 X84.5386 Y39.2993 
G01 X84.4868 Y39.4587 
G01 X84.4107 Y39.6081 
G01 X84.3122 Y39.7437 
G01 X84.1937 Y39.8622 
G01 X84.0581 Y39.9607 
G01 X83.9087 Y40.0368 
G01 X83.7493 Y40.0886 
G01 X83.5838 Y40.1148 
G01 X83.4162 Y40.1148 
G01 X83.2507 Y40.0886 
G01 X83.0913 Y40.0368 
G01 X82.9419 Y39.9607 
G01 X82.8063 Y39.8622 
G01 X82.6878 Y39.7437 
G01 X82.6379 Y39.6750 
G01 X80.9500 Y39.6750 
G01 X80.9500 Y43.5050 
G01 X82.6379 Y43.5050 
G01 X82.6878 Y43.4363 
G01 X82.8063 Y43.3178 
G01 X82.9419 Y43.2193 
G01 X83.0913 Y43.1432 
G01 X83.2507 Y43.0914 
G01 X83.4162 Y43.0652 
G01 X83.5838 Y43.0652 
G01 X83.7493 Y43.0914 
G01 X83.9087 Y43.1432 
G01 X84.0581 Y43.2193 
G01 X84.1937 Y43.3178 
G01 X84.3122 Y43.4363 
G01 X84.4107 Y43.5719 
G01 X84.4868 Y43.7213 
G01 X84.5386 Y43.8807 
G01 X84.5648 Y44.0462 
G01 X84.5648 Y44.2138 
G01 X84.5386 Y44.3793 
G01 X84.4868 Y44.5387 
G01 X84.4107 Y44.6881 
G01 X84.3122 Y44.8237 
G01 X84.1937 Y44.9422 
G01 X84.0581 Y45.0407 
G01 X83.9087 Y45.1168 
G01 X83.7493 Y45.1686 
G01 X83.5838 Y45.1948 
G01 X83.4162 Y45.1948 
G01 X83.2507 Y45.1686 
G01 X83.0913 Y45.1168 
G01 X82.9419 Y45.0407 
G01 X82.8063 Y44.9422 
G01 X82.6878 Y44.8237 
G01 X82.6379 Y44.7550 
G01 X80.2634 Y44.7550 
G01 X80.1427 Y44.7310 
G01 X80.0290 Y44.6839 
G01 X79.9266 Y44.6155 
G01 X79.8395 Y44.5284 
G01 X79.7711 Y44.4260 
G01 X79.7240 Y44.3123 
G01 X79.7000 Y44.1916 
G01 X79.7000 Y42.2150 
G01 X76.5191 Y42.2150 
G01 X76.4617 Y42.2158 
G01 X76.4576 Y42.2150 
G01 X76.4534 Y42.2150 
G01 X76.3972 Y42.2038 
G01 X76.3407 Y42.1933 
G01 X76.3368 Y42.1918 
G01 X76.3327 Y42.1910 
G01 X76.2796 Y42.1690 
G01 X76.2263 Y42.1477 
G01 X76.2228 Y42.1455 
G01 X76.2190 Y42.1439 
G01 X76.1712 Y42.1120 
G01 X76.1230 Y42.0807 
G01 X76.1200 Y42.0778 
G01 X76.1166 Y42.0755 
G01 X76.0760 Y42.0349 
G01 X76.0348 Y41.9948 
G00 Z3.0000 
G00 X77.9882 Y30.6160 
G01 Z-0.1778 F200.00 
G01 X77.9663 Y30.5908 F200.00 
G01 X77.9422 Y30.5676 
G01 X77.9260 Y30.5443 
G01 X77.9075 Y30.5230 
G01 X77.8910 Y30.4940 
G01 X77.8719 Y30.4665 
G01 X77.8605 Y30.4406 
G01 X77.8465 Y30.4160 
G01 X77.8360 Y30.3843 
G01 X77.8226 Y30.3537 
G01 X77.8165 Y30.3261 
G01 X77.8076 Y30.2992 
G01 X77.8034 Y30.2661 
G01 X77.5613 Y29.1594 
G01 X70.6121 Y29.1594 
G01 X70.4914 Y29.1354 
G01 X70.3776 Y29.0883 
G01 X70.2753 Y29.0199 
G01 X68.4844 Y27.2290 
G01 X49.4371 Y27.2290 
G01 X49.3872 Y27.2977 
G01 X49.2687 Y27.4162 
G01 X49.1331 Y27.5147 
G01 X48.9837 Y27.5908 
G01 X48.8243 Y27.6426 
G01 X48.6588 Y27.6688 
G01 X48.4912 Y27.6688 
G01 X48.3257 Y27.6426 
G01 X48.1663 Y27.5908 
G01 X48.0169 Y27.5147 
G01 X47.8813 Y27.4162 
G01 X47.7628 Y27.2977 
G01 X47.6643 Y27.1621 
G01 X47.5882 Y27.0127 
G01 X47.5364 Y26.8533 
G01 X47.5102 Y26.6878 
G01 X47.5102 Y26.5202 
G01 X47.5364 Y26.3547 
G01 X47.5882 Y26.1953 
G01 X47.6643 Y26.0459 
G01 X47.7628 Y25.9103 
G01 X47.8813 Y25.7918 
G01 X48.0169 Y25.6933 
G01 X48.1663 Y25.6172 
G01 X48.3257 Y25.5654 
G01 X48.4912 Y25.5392 
G01 X48.6588 Y25.5392 
G01 X48.8243 Y25.5654 
G01 X48.9837 Y25.6172 
G01 X49.1331 Y25.6933 
G01 X49.2687 Y25.7918 
G01 X49.3872 Y25.9103 
G01 X49.4371 Y25.9790 
G01 X68.8049 Y25.9790 
G01 X68.9256 Y26.0030 
G01 X69.0393 Y26.0501 
G01 X69.1417 Y26.1185 
G01 X70.9326 Y27.9094 
G01 X78.0585 Y27.9094 
G01 X78.1141 Y27.9083 
G01 X78.1200 Y27.9094 
G01 X78.1260 Y27.9094 
G01 X78.1805 Y27.9202 
G01 X78.2353 Y27.9301 
G01 X78.2408 Y27.9323 
G01 X78.2467 Y27.9334 
G01 X78.2981 Y27.9547 
G01 X78.3499 Y27.9750 
G01 X78.3549 Y27.9782 
G01 X78.3604 Y27.9805 
G01 X78.4066 Y28.0114 
G01 X78.4535 Y28.0414 
G01 X78.4578 Y28.0456 
G01 X78.4628 Y28.0489 
G01 X78.5020 Y28.0882 
G01 X78.5422 Y28.1268 
G01 X78.5456 Y28.1318 
G01 X78.5499 Y28.1360 
G01 X78.5807 Y28.1822 
G01 X78.6125 Y28.2279 
G01 X78.6149 Y28.2334 
G01 X78.6183 Y28.2384 
G01 X78.6395 Y28.2897 
G01 X78.6618 Y28.3407 
G01 X78.6631 Y28.3466 
G01 X78.6654 Y28.3521 
G01 X78.6762 Y28.4065 
G01 X78.9667 Y29.7346 
G01 X81.1075 Y30.8050 
G01 X82.6379 Y30.8050 
G01 X82.6878 Y30.7363 
G01 X82.8063 Y30.6178 
G01 X82.9419 Y30.5193 
G01 X83.0913 Y30.4432 
G01 X83.2507 Y30.3914 
G01 X83.4162 Y30.3652 
G01 X83.5838 Y30.3652 
G01 X83.7493 Y30.3914 
G01 X83.9087 Y30.4432 
G01 X84.0581 Y30.5193 
G01 X84.1937 Y30.6178 
G01 X84.3122 Y30.7363 
G01 X84.4107 Y30.8719 
G01 X84.4868 Y31.0213 
G01 X84.5386 Y31.1807 
G01 X84.5648 Y31.3462 
G01 X84.5648 Y31.5138 
G01 X84.5386 Y31.6793 
G01 X84.4868 Y31.8387 
G01 X84.4107 Y31.9881 
G01 X84.3122 Y32.1237 
G01 X84.1937 Y32.2422 
G01 X84.0581 Y32.3407 
G01 X83.9087 Y32.4168 
G01 X83.7493 Y32.4686 
G01 X83.5838 Y32.4948 
G01 X83.4162 Y32.4948 
G01 X83.2507 Y32.4686 
G01 X83.0913 Y32.4168 
G01 X82.9419 Y32.3407 
G01 X82.8063 Y32.2422 
G01 X82.6878 Y32.1237 
G01 X82.6379 Y32.0550 
G01 X80.9992 Y32.0550 
G01 X80.9771 Y32.0578 
G01 X80.9378 Y32.0550 
G01 X80.8984 Y32.0550 
G01 X80.8765 Y32.0506 
G01 X80.8543 Y32.0491 
G01 X80.8163 Y32.0387 
G01 X80.7777 Y32.0310 
G01 X80.7571 Y32.0224 
G01 X80.7355 Y32.0165 
G01 X80.7003 Y31.9989 
G01 X80.6639 Y31.9839 
G01 X80.6454 Y31.9715 
G01 X78.1657 Y30.7316 
G01 X78.1345 Y30.7194 
G01 X78.1107 Y30.7041 
G01 X78.0854 Y30.6915 
G01 X78.0590 Y30.6710 
G01 X78.0309 Y30.6530 
G01 X78.0105 Y30.6333 
G01 X77.9882 Y30.6160 
G00 Z3.0000 
G00 X85.5904 Y26.1162 
G01 Z-0.1778 F200.00 
G01 X85.3848 Y25.9106 F200.00 
G01 X85.2078 Y25.6799 
G01 X85.0625 Y25.4281 
G01 X84.9512 Y25.1595 
G01 X84.8760 Y24.8786 
G01 X84.8380 Y24.5904 
G01 X84.8380 Y24.2996 
G01 X84.8760 Y24.0114 
G01 X84.9512 Y23.7305 
G01 X85.0625 Y23.4619 
G01 X85.2078 Y23.2101 
G01 X85.3848 Y22.9794 
G01 X85.5904 Y22.7738 
G01 X85.8211 Y22.5968 
G01 X86.0729 Y22.4515 
G01 X86.3415 Y22.3402 
G01 X86.6224 Y22.2649 
G01 X86.9106 Y22.2270 
G01 X87.2014 Y22.2270 
G01 X87.4896 Y22.2649 
G01 X87.7705 Y22.3402 
G01 X88.0391 Y22.4515 
G01 X88.2909 Y22.5968 
G01 X88.5216 Y22.7738 
G01 X88.7272 Y22.9794 
G01 X88.9042 Y23.2101 
G01 X89.0495 Y23.4619 
G01 X89.1608 Y23.7305 
G01 X89.2360 Y24.0114 
G01 X89.2740 Y24.2996 
G01 X89.2740 Y24.5904 
G01 X89.2360 Y24.8786 
G01 X89.1608 Y25.1595 
G01 X89.0495 Y25.4281 
G01 X88.9042 Y25.6799 
G01 X88.7272 Y25.9106 
G01 X88.5216 Y26.1162 
G01 X88.2909 Y26.2932 
G01 X88.0391 Y26.4385 
G01 X87.7705 Y26.5498 
G01 X87.4896 Y26.6250 
G01 X87.2014 Y26.6630 
G01 X86.9106 Y26.6630 
G01 X86.6224 Y26.6250 
G01 X86.3415 Y26.5498 
G01 X86.0729 Y26.4385 
G01 X85.8211 Y26.2932 
G01 X85.5904 Y26.1162 
G00 Z3.0000 
G00 X47.3637 Y27.0618 
G01 Z-0.1778 F200.00 
G01 X47.4822 Y27.1803 F200.00 
G01 X47.5807 Y27.3159 
G01 X47.6568 Y27.4653 
G01 X47.7086 Y27.6247 
G01 X47.7348 Y27.7902 
G01 X47.7348 Y27.9578 
G01 X47.7086 Y28.1233 
G01 X47.6568 Y28.2827 
G01 X47.5807 Y28.4321 
G01 X47.4822 Y28.5677 
G01 X47.3637 Y28.6862 
G01 X47.2281 Y28.7847 
G01 X47.0787 Y28.8608 
G01 X46.9193 Y28.9126 
G01 X46.7538 Y28.9388 
G01 X46.5862 Y28.9388 
G01 X46.4207 Y28.9126 
G01 X46.2613 Y28.8608 
G01 X46.1119 Y28.7847 
G01 X45.9763 Y28.6862 
G01 X45.8578 Y28.5677 
G01 X45.7593 Y28.4321 
G01 X45.6844 Y28.2850 
G01 X40.6256 Y28.2850 
G01 X40.5530 Y28.3335 
G01 X40.4147 Y28.3908 
G01 X40.2679 Y28.4200 
G01 X40.1181 Y28.4200 
G01 X39.9713 Y28.3908 
G01 X39.8330 Y28.3335 
G01 X39.7085 Y28.2503 
G01 X39.6027 Y28.1445 
G01 X39.5195 Y28.0200 
G01 X39.4622 Y27.8817 
G01 X39.4330 Y27.7349 
G01 X39.4330 Y27.5851 
G01 X39.4622 Y27.4383 
G01 X39.5195 Y27.3000 
G01 X39.6027 Y27.1755 
G01 X39.7085 Y27.0697 
G01 X39.8330 Y26.9865 
G01 X39.9713 Y26.9292 
G01 X40.1181 Y26.9000 
G01 X40.2679 Y26.9000 
G01 X40.4147 Y26.9292 
G01 X40.5530 Y26.9865 
G01 X40.6256 Y27.0350 
G01 X46.0132 Y27.0350 
G01 X46.1119 Y26.9633 
G01 X46.2613 Y26.8872 
G01 X46.4207 Y26.8354 
G01 X46.5862 Y26.8092 
G01 X46.7538 Y26.8092 
G01 X46.9193 Y26.8354 
G01 X47.0787 Y26.8872 
G01 X47.2281 Y26.9633 
G01 X47.3637 Y27.0618 
G00 Z3.0000 
G00 X65.0897 Y70.3155 
G01 Z-0.1778 F200.00 
G01 X65.1955 Y70.2097 F200.00 
G01 X65.3200 Y70.1265 
G01 X65.4583 Y70.0692 
G01 X65.6051 Y70.0400 
G01 X65.7549 Y70.0400 
G01 X65.9017 Y70.0692 
G01 X66.0400 Y70.1265 
G01 X66.1126 Y70.1750 
G01 X68.6679 Y70.1750 
G01 X68.7178 Y70.1063 
G01 X68.8363 Y69.9878 
G01 X68.9719 Y69.8893 
G01 X69.1213 Y69.8132 
G01 X69.2807 Y69.7614 
G01 X69.4462 Y69.7352 
G01 X69.6138 Y69.7352 
G01 X69.7793 Y69.7614 
G01 X69.9387 Y69.8132 
G01 X70.0881 Y69.8893 
G01 X70.2237 Y69.9878 
G01 X70.3422 Y70.1063 
G01 X70.4407 Y70.2419 
G01 X70.5168 Y70.3913 
G01 X70.5686 Y70.5507 
G01 X70.5948 Y70.7162 
G01 X70.5948 Y70.8838 
G01 X70.5686 Y71.0493 
G01 X70.5168 Y71.2087 
G01 X70.4407 Y71.3581 
G01 X70.3422 Y71.4937 
G01 X70.2237 Y71.6122 
G01 X70.0881 Y71.7107 
G01 X69.9387 Y71.7868 
G01 X69.7793 Y71.8386 
G01 X69.6138 Y71.8648 
G01 X69.4462 Y71.8648 
G01 X69.2807 Y71.8386 
G01 X69.1213 Y71.7868 
G01 X68.9719 Y71.7107 
G01 X68.8363 Y71.6122 
G01 X68.7178 Y71.4937 
G01 X68.6679 Y71.4250 
G01 X66.1126 Y71.4250 
G01 X66.0400 Y71.4735 
G01 X65.9017 Y71.5308 
G01 X65.7549 Y71.5600 
G01 X65.6051 Y71.5600 
G01 X65.4583 Y71.5308 
G01 X65.3200 Y71.4735 
G01 X65.1955 Y71.3903 
G01 X65.0897 Y71.2845 
G01 X65.0065 Y71.1600 
G01 X64.9492 Y71.0217 
G01 X64.9200 Y70.8749 
G01 X64.9200 Y70.7251 
G01 X64.9492 Y70.5783 
G01 X65.0065 Y70.4400 
G01 X65.0897 Y70.3155 
G00 Z3.0000 
G00 X65.2345 Y74.2116 
G01 Z-0.1778 F200.00 
G01 X65.3216 Y74.1245 F200.00 
G01 X65.4239 Y74.0561 
G01 X65.5377 Y74.0090 
G01 X65.6584 Y73.9850 
G01 X68.6679 Y73.9850 
G01 X68.7178 Y73.9163 
G01 X68.8363 Y73.7978 
G01 X68.9719 Y73.6993 
G01 X69.1213 Y73.6232 
G01 X69.2807 Y73.5714 
G01 X69.4462 Y73.5452 
G01 X69.6138 Y73.5452 
G01 X69.7793 Y73.5714 
G01 X69.9387 Y73.6232 
G01 X70.0881 Y73.6993 
G01 X70.2237 Y73.7978 
G01 X70.3422 Y73.9163 
G01 X70.4407 Y74.0519 
G01 X70.5168 Y74.2013 
G01 X70.5686 Y74.3607 
G01 X70.5948 Y74.5262 
G01 X70.5948 Y74.6938 
G01 X70.5686 Y74.8593 
G01 X70.5168 Y75.0187 
G01 X70.4407 Y75.1681 
G01 X70.3422 Y75.3037 
G01 X70.2237 Y75.4222 
G01 X70.0881 Y75.5207 
G01 X69.9387 Y75.5968 
G01 X69.7793 Y75.6486 
G01 X69.6138 Y75.6748 
G01 X69.4462 Y75.6748 
G01 X69.2807 Y75.6486 
G01 X69.1213 Y75.5968 
G01 X68.9719 Y75.5207 
G01 X68.8363 Y75.4222 
G01 X68.7178 Y75.3037 
G01 X68.6679 Y75.2350 
G01 X66.3450 Y75.2350 
G01 X66.3450 Y75.5073 
G01 X66.3535 Y75.5200 
G01 X66.4108 Y75.6583 
G01 X66.4400 Y75.8051 
G01 X66.4400 Y75.9549 
G01 X66.4108 Y76.1017 
G01 X66.3535 Y76.2400 
G01 X66.2703 Y76.3645 
G01 X66.1645 Y76.4703 
G01 X66.0400 Y76.5535 
G01 X65.9017 Y76.6108 
G01 X65.7549 Y76.6400 
G01 X65.6051 Y76.6400 
G01 X65.4583 Y76.6108 
G01 X65.3200 Y76.5535 
G01 X65.1955 Y76.4703 
G01 X65.0897 Y76.3645 
G01 X65.0065 Y76.2400 
G01 X64.9492 Y76.1017 
G01 X64.9200 Y75.9549 
G01 X64.9200 Y75.8051 
G01 X64.9492 Y75.6583 
G01 X65.0065 Y75.5200 
G01 X65.0897 Y75.3955 
G01 X65.0950 Y75.3902 
G01 X65.0950 Y74.5484 
G01 X65.1190 Y74.4277 
G01 X65.1661 Y74.3140 
G01 X65.2345 Y74.2116 
G00 Z3.0000 
G00 X85.3848 Y96.5124 
G01 Z-0.1778 F200.00 
G01 X85.5904 Y96.3068 F200.00 
G01 X85.8211 Y96.1298 
G01 X86.0729 Y95.9845 
G01 X86.3415 Y95.8732 
G01 X86.6224 Y95.7980 
G01 X86.9106 Y95.7600 
G01 X87.2014 Y95.7600 
G01 X87.4896 Y95.7980 
G01 X87.7705 Y95.8732 
G01 X88.0391 Y95.9845 
G01 X88.2909 Y96.1298 
G01 X88.5216 Y96.3068 
G01 X88.7272 Y96.5124 
G01 X88.9042 Y96.7431 
G01 X89.0495 Y96.9949 
G01 X89.1608 Y97.2635 
G01 X89.2360 Y97.5444 
G01 X89.2740 Y97.8326 
G01 X89.2740 Y98.1234 
G01 X89.2360 Y98.4116 
G01 X89.1608 Y98.6925 
G01 X89.0495 Y98.9611 
G01 X88.9042 Y99.2129 
G01 X88.7272 Y99.4436 
G01 X88.5216 Y99.6492 
G01 X88.2909 Y99.8262 
